;FLAVOR:Marlin
;TIME:5324
;Filament used: 1.31067m
;Layer height: 0.1
;MINX:114.03
;MINY:139.326
;MINZ:0.3
;MAXX:187.096
;MAXY:181.781
;MAXZ:12.2
;Generated with Cura_SteamEngine 4.6.1
M104 S200
M105
M109 S200
M82 ;absolute extrusion mode
G28 ;Home
G1 Z15.0 F6000 ;Move the platform down 15mm
;Prime the extruder
G92 E0
G1 F200 E3
G92 E0
G92 E0
G92 E0
G1 F1500 E-6.5
;LAYER_COUNT:120
;LAYER:0
M107
;MESH:letter_F.stl
G0 F3600 X156.085 Y150.771 Z0.3
;TYPE:WALL-INNER
G1 F1500 E0
G1 F1800 X156.085 Y181.381 E0.57579
G1 X145.041 Y181.381 E0.78353
G1 X145.041 Y150.771 E1.35933
G1 X125.474 Y150.771 E1.72739
G1 X125.474 Y181.381 E2.30318
G1 X114.43 Y181.381 E2.51093
G1 X114.43 Y139.726 E3.29448
G1 X186.696 Y139.726 E4.65384
G1 X186.696 Y150.771 E4.86161
G1 X156.085 Y150.771 E5.43742
G0 F3600 X156.485 Y151.171
;TYPE:WALL-OUTER
G1 F1800 X156.485 Y181.781 E6.01321
G1 X144.641 Y181.781 E6.236
G1 X144.641 Y151.171 E6.81179
G1 X125.874 Y151.171 E7.16481
G1 X125.874 Y181.781 E7.7406
G1 X114.03 Y181.781 E7.96339
G1 X114.03 Y139.326 E8.76199
G1 X187.096 Y139.326 E10.13641
G1 X187.096 Y151.171 E10.35922
G1 X156.485 Y151.171 E10.93503
G0 F3600 X156.485 Y151.371
G0 X155.985 Y151.371
G0 X155.695 Y150.381
;TYPE:SKIN
G1 F1800 X155.695 Y180.991 E11.51082
G1 X145.431 Y180.991 E11.70389
G1 X145.431 Y150.381 E12.27968
G1 X125.084 Y150.381 E12.66242
G1 X125.084 Y180.991 E13.23821
G1 X114.82 Y180.991 E13.43128
G1 X114.82 Y140.116 E14.20016
G1 X186.306 Y140.116 E15.54486
G1 X186.306 Y150.381 E15.73795
G1 X155.695 Y150.381 E16.31376
G0 F3600 X186.125 Y140.87
G1 F1800 X185.551 Y140.296 E16.32903
G0 F3600 X184.985 Y140.296
G1 F1800 X186.125 Y141.436 E16.35935
G0 F3600 X186.125 Y142.001
G1 F1800 X184.419 Y140.296 E16.40472
G0 F3600 X183.854 Y140.296
G1 F1800 X186.125 Y142.567 E16.46514
G0 F3600 X186.125 Y143.133
G1 F1800 X183.288 Y140.296 E16.54061
G0 F3600 X182.722 Y140.296
G1 F1800 X186.125 Y143.698 E16.63112
G0 F3600 X186.125 Y144.264
G1 F1800 X182.157 Y140.296 E16.73668
G0 F3600 X181.591 Y140.296
G1 F1800 X186.125 Y144.83 E16.85729
G0 F3600 X186.125 Y145.396
G1 F1800 X181.025 Y140.296 E16.99296
G0 F3600 X180.46 Y140.296
G1 F1800 X186.125 Y145.961 E17.14366
G0 F3600 X186.125 Y146.527
G1 F1800 X179.894 Y140.296 E17.30942
G0 F3600 X179.328 Y140.296
G1 F1800 X186.125 Y147.093 E17.49024
G0 F3600 X186.125 Y147.658
G1 F1800 X178.762 Y140.296 E17.68609
G0 F3600 X178.197 Y140.296
G1 F1800 X186.125 Y148.224 E17.897
G0 F3600 X186.125 Y148.79
G1 F1800 X177.631 Y140.296 E18.12295
G0 F3600 X177.065 Y140.296
G1 F1800 X186.125 Y149.355 E18.36396
G0 F3600 X186.125 Y149.921
G1 F1800 X176.5 Y140.296 E18.62
G0 F3600 X175.934 Y140.296
G1 F1800 X185.838 Y150.2 E18.88347
G0 F3600 X185.273 Y150.2
G1 F1800 X175.368 Y140.296 E19.14695
G0 F3600 X174.803 Y140.296
G1 F1800 X184.707 Y150.2 E19.41042
G0 F3600 X184.141 Y150.2
G1 F1800 X174.237 Y140.296 E19.67389
G0 F3600 X173.671 Y140.296
G1 F1800 X183.576 Y150.2 E19.93737
G0 F3600 X183.01 Y150.2
G1 F1800 X173.106 Y140.296 E20.20083
G0 F3600 X172.54 Y140.296
G1 F1800 X182.444 Y150.2 E20.4643
G0 F3600 X181.879 Y150.2
G1 F1800 X171.974 Y140.296 E20.72778
G0 F3600 X171.409 Y140.296
G1 F1800 X181.313 Y150.2 E20.99125
G0 F3600 X180.747 Y150.2
G1 F1800 X170.843 Y140.296 E21.25472
G0 F3600 X170.277 Y140.296
G1 F1800 X180.182 Y150.2 E21.5182
G0 F3600 X179.616 Y150.2
G1 F1800 X169.711 Y140.296 E21.78168
G0 F3600 X169.146 Y140.296
G1 F1800 X179.05 Y150.2 E22.04515
G0 F3600 X178.485 Y150.2
G1 F1800 X168.58 Y140.296 E22.30863
G0 F3600 X168.014 Y140.296
G1 F1800 X177.919 Y150.2 E22.57211
G0 F3600 X177.353 Y150.2
G1 F1800 X167.449 Y140.296 E22.83558
G0 F3600 X166.883 Y140.296
G1 F1800 X176.788 Y150.2 E23.09906
G0 F3600 X176.222 Y150.2
G1 F1800 X166.317 Y140.296 E23.36254
G0 F3600 X165.752 Y140.296
G1 F1800 X175.656 Y150.2 E23.62601
G0 F3600 X175.09 Y150.2
G1 F1800 X165.186 Y140.296 E23.88947
G0 F3600 X164.62 Y140.296
G1 F1800 X174.525 Y150.2 E24.15296
G0 F3600 X173.959 Y150.2
G1 F1800 X164.055 Y140.296 E24.41642
G0 F3600 X163.489 Y140.296
G1 F1800 X173.393 Y150.2 E24.67989
G0 F3600 X172.828 Y150.2
G1 F1800 X162.923 Y140.296 E24.94337
G0 F3600 X162.358 Y140.296
G1 F1800 X172.262 Y150.2 E25.20684
G0 F3600 X171.696 Y150.2
G1 F1800 X161.792 Y140.296 E25.47031
G0 F3600 X161.226 Y140.296
G1 F1800 X171.131 Y150.2 E25.73379
G0 F3600 X170.565 Y150.2
G1 F1800 X160.661 Y140.296 E25.99726
G0 F3600 X160.095 Y140.296
G1 F1800 X169.999 Y150.2 E26.26072
G0 F3600 X169.434 Y150.2
G1 F1800 X159.529 Y140.296 E26.5242
G0 F3600 X158.963 Y140.296
G1 F1800 X168.868 Y150.2 E26.78769
G0 F3600 X168.302 Y150.2
G1 F1800 X158.398 Y140.296 E27.05115
G0 F3600 X157.832 Y140.296
G1 F1800 X167.737 Y150.2 E27.31463
G0 F3600 X167.171 Y150.2
G1 F1800 X157.266 Y140.296 E27.57811
G0 F3600 X156.701 Y140.296
G1 F1800 X166.605 Y150.2 E27.84158
G0 F3600 X166.039 Y150.2
G1 F1800 X156.135 Y140.296 E28.10505
G0 F3600 X155.569 Y140.296
G1 F1800 X165.474 Y150.2 E28.36853
G0 F3600 X164.908 Y150.2
G1 F1800 X155.004 Y140.296 E28.632
G0 F3600 X154.438 Y140.296
G1 F1800 X164.342 Y150.2 E28.89547
G0 F3600 X163.777 Y150.2
G1 F1800 X153.872 Y140.296 E29.15895
G0 F3600 X153.307 Y140.296
G1 F1800 X163.211 Y150.2 E29.42241
G0 F3600 X162.645 Y150.2
G1 F1800 X152.741 Y140.296 E29.68588
G0 F3600 X152.175 Y140.296
G1 F1800 X162.08 Y150.2 E29.94936
G0 F3600 X161.514 Y150.2
G1 F1800 X151.61 Y140.296 E30.21283
G0 F3600 X151.044 Y140.296
G1 F1800 X160.948 Y150.2 E30.4763
G0 F3600 X160.383 Y150.2
G1 F1800 X150.477 Y140.295 E30.73981
G0 F3600 X149.912 Y140.295
G1 F1800 X159.817 Y150.2 E31.0033
G0 F3600 X159.251 Y150.2
G1 F1800 X149.346 Y140.295 E31.26679
G0 F3600 X148.78 Y140.295
G1 F1800 X158.686 Y150.2 E31.5303
G0 F3600 X158.12 Y150.2
G1 F1800 X148.215 Y140.295 E31.7938
G0 F3600 X147.649 Y140.295
G1 F1800 X157.554 Y150.2 E32.05729
G0 F3600 X156.989 Y150.2
G1 F1800 X147.083 Y140.295 E32.3208
G0 F3600 X146.518 Y140.295
G1 F1800 X156.423 Y150.2 E32.58429
G0 F3600 X155.857 Y150.2
G1 F1800 X145.952 Y140.295 E32.84779
G0 F3600 X145.386 Y140.295
G1 F1800 X155.514 Y150.423 E33.11721
G0 F3600 X155.514 Y150.989
G1 F1800 X144.821 Y140.295 E33.40168
G0 F3600 X144.255 Y140.295
G1 F1800 X155.514 Y151.554 E33.7012
G0 F3600 X155.514 Y152.12
G1 F1800 X143.689 Y140.295 E34.01577
G0 F3600 X143.124 Y140.295
G1 F1800 X155.514 Y152.686 E34.34538
G0 F3600 X155.514 Y153.251
G1 F1800 X142.558 Y140.295 E34.69004
G0 F3600 X141.992 Y140.295
G1 F1800 X155.514 Y153.817 E35.04975
G0 F3600 X155.514 Y154.383
G1 F1800 X141.427 Y140.295 E35.42451
G0 F3600 X140.861 Y140.295
G1 F1800 X155.514 Y154.949 E35.81432
G0 F3600 X155.514 Y155.514
G1 F1800 X140.295 Y140.295 E36.21918
G0 F3600 X139.729 Y140.295
G1 F1800 X155.514 Y156.08 E36.6391
G0 F3600 X155.514 Y156.646
G1 F1800 X139.164 Y140.295 E37.07406
G0 F3600 X138.598 Y140.295
G1 F1800 X155.514 Y157.211 E37.52406
G0 F3600 X155.514 Y157.777
G1 F1800 X138.032 Y140.295 E37.98912
G0 F3600 X137.467 Y140.295
G1 F1800 X155.514 Y158.343 E38.46922
G0 F3600 X155.514 Y158.908
G1 F1800 X136.901 Y140.295 E38.96436
G0 F3600 X136.335 Y140.295
G1 F1800 X155.514 Y159.474 E39.47457
G0 F3600 X155.514 Y160.04
G1 F1800 X135.77 Y140.295 E39.99981
G0 F3600 X135.204 Y140.295
G1 F1800 X145.108 Y150.2 E40.26329
G0 F3600 X144.543 Y150.2
G1 F1800 X134.638 Y140.295 E40.52679
G0 F3600 X134.073 Y140.295
G1 F1800 X143.977 Y150.2 E40.79027
G0 F3600 X143.411 Y150.2
G1 F1800 X133.507 Y140.295 E41.05375
G0 F3600 X132.941 Y140.295
G1 F1800 X142.846 Y150.2 E41.31724
G0 F3600 X142.28 Y150.2
G1 F1800 X132.376 Y140.295 E41.58073
G0 F3600 X131.81 Y140.295
G1 F1800 X141.714 Y150.2 E41.84421
G0 F3600 X141.149 Y150.2
G1 F1800 X131.244 Y140.295 E42.1077
G0 F3600 X130.678 Y140.295
G1 F1800 X140.583 Y150.2 E42.37119
G0 F3600 X140.017 Y150.2
G1 F1800 X130.113 Y140.295 E42.63468
G0 F3600 X129.547 Y140.295
G1 F1800 X139.452 Y150.2 E42.89817
G0 F3600 X138.886 Y150.2
G1 F1800 X128.981 Y140.295 E43.16166
G0 F3600 X128.416 Y140.295
G1 F1800 X138.32 Y150.2 E43.42515
G0 F3600 X137.755 Y150.2
G1 F1800 X127.85 Y140.295 E43.68864
G0 F3600 X127.284 Y140.295
G1 F1800 X137.189 Y150.2 E43.95213
G0 F3600 X136.623 Y150.2
G1 F1800 X126.719 Y140.295 E44.21561
G0 F3600 X126.153 Y140.295
G1 F1800 X136.057 Y150.2 E44.4791
G0 F3600 X135.492 Y150.2
G1 F1800 X125.587 Y140.295 E44.74259
G0 F3600 X125.022 Y140.295
G1 F1800 X134.926 Y150.2 E45.00607
G0 F3600 X134.36 Y150.2
G1 F1800 X124.456 Y140.295 E45.26955
G0 F3600 X123.89 Y140.295
G1 F1800 X133.795 Y150.2 E45.53305
G0 F3600 X133.229 Y150.2
G1 F1800 X123.325 Y140.295 E45.79653
G0 F3600 X122.759 Y140.295
G1 F1800 X132.663 Y150.2 E46.06001
G0 F3600 X132.098 Y150.2
G1 F1800 X122.193 Y140.295 E46.3235
G0 F3600 X121.628 Y140.295
G1 F1800 X131.532 Y150.2 E46.58698
G0 F3600 X130.966 Y150.2
G1 F1800 X121.062 Y140.295 E46.85046
G0 F3600 X120.496 Y140.295
G1 F1800 X130.401 Y150.2 E47.11396
G0 F3600 X129.835 Y150.2
G1 F1800 X119.93 Y140.295 E47.37745
G0 F3600 X119.365 Y140.295
G1 F1800 X129.269 Y150.2 E47.64093
G0 F3600 X128.704 Y150.2
G1 F1800 X118.799 Y140.295 E47.90443
G0 F3600 X118.233 Y140.295
G1 F1800 X128.138 Y150.2 E48.16792
G0 F3600 X127.572 Y150.2
G1 F1800 X117.668 Y140.295 E48.4314
G0 F3600 X117.102 Y140.295
G1 F1800 X127.006 Y150.2 E48.69488
G0 F3600 X126.441 Y150.2
G1 F1800 X116.536 Y140.295 E48.95838
G0 F3600 X115.971 Y140.295
G1 F1800 X125.875 Y150.2 E49.22186
G0 F3600 X125.309 Y150.2
G1 F1800 X115.405 Y140.295 E49.48534
G0 F3600 X114.999 Y140.455
G1 F1800 X124.904 Y150.359 E49.74882
G0 F3600 X124.904 Y150.925
G1 F1800 X114.999 Y141.021 E50.0123
G0 F3600 X114.999 Y141.586
G1 F1800 X124.904 Y151.491 E50.2758
G0 F3600 X124.904 Y152.056
G1 F1800 X114.999 Y142.152 E50.53928
G0 F3600 X114.999 Y142.718
G1 F1800 X124.904 Y152.622 E50.80276
G0 F3600 X124.904 Y153.188
G1 F1800 X114.999 Y143.283 E51.06625
G0 F3600 X114.999 Y143.849
G1 F1800 X124.904 Y153.754 E51.32975
G0 F3600 X124.904 Y154.319
G1 F1800 X114.999 Y144.415 E51.59323
G0 F3600 X114.999 Y144.98
G1 F1800 X124.904 Y154.885 E51.85672
G0 F3600 X124.904 Y155.451
G1 F1800 X114.999 Y145.546 E52.12022
G0 F3600 X114.999 Y146.112
G1 F1800 X124.904 Y156.016 E52.3837
G0 F3600 X124.904 Y156.582
G1 F1800 X114.999 Y146.677 E52.64719
G0 F3600 X114.999 Y147.243
G1 F1800 X124.904 Y157.148 E52.91068
G0 F3600 X124.904 Y157.713
G1 F1800 X114.999 Y147.809 E53.17417
G0 F3600 X114.999 Y148.375
G1 F1800 X124.904 Y158.279 E53.43765
G0 F3600 X124.904 Y158.845
G1 F1800 X114.999 Y148.94 E53.70114
G0 F3600 X114.999 Y149.506
G1 F1800 X124.904 Y159.41 E53.96462
G0 F3600 X124.904 Y159.976
G1 F1800 X114.999 Y150.072 E54.2281
G0 F3600 X114.999 Y150.637
G1 F1800 X124.904 Y160.542 E54.4916
G0 F3600 X124.904 Y161.107
G1 F1800 X114.999 Y151.203 E54.75508
G0 F3600 X114.999 Y151.769
G1 F1800 X124.904 Y161.673 E55.01856
G0 F3600 X124.904 Y162.239
G1 F1800 X114.999 Y152.334 E55.28205
G0 F3600 X114.999 Y152.9
G1 F1800 X124.904 Y162.804 E55.54553
G0 F3600 X124.904 Y163.37
G1 F1800 X114.999 Y153.466 E55.80902
G0 F3600 X114.999 Y154.031
G1 F1800 X124.904 Y163.936 E56.07251
G0 F3600 X124.904 Y164.502
G1 F1800 X114.999 Y154.597 E56.336
G0 F3600 X114.999 Y155.163
G1 F1800 X124.904 Y165.067 E56.59948
G0 F3600 X124.904 Y165.633
G1 F1800 X114.999 Y155.728 E56.86298
G0 F3600 X114.999 Y156.294
G1 F1800 X124.904 Y166.199 E57.12647
G0 F3600 X124.904 Y166.764
G1 F1800 X114.999 Y156.86 E57.38995
G0 F3600 X114.999 Y157.426
G1 F1800 X124.904 Y167.33 E57.65343
G0 F3600 X124.904 Y167.896
G1 F1800 X114.999 Y157.991 E57.91693
G0 F3600 X114.999 Y158.557
G1 F1800 X124.904 Y168.461 E58.18041
G0 F3600 X124.904 Y169.027
G1 F1800 X114.999 Y159.123 E58.44389
G0 F3600 X114.999 Y159.688
G1 F1800 X124.904 Y169.593 E58.70739
G0 F3600 X124.904 Y170.158
G1 F1800 X114.999 Y160.254 E58.97087
G0 F3600 X114.999 Y160.82
G1 F1800 X124.904 Y170.724 E59.23435
G0 F3600 X124.904 Y171.29
G1 F1800 X114.999 Y161.385 E59.49784
G0 F3600 X114.999 Y161.951
G1 F1800 X124.904 Y171.855 E59.76132
G0 F3600 X124.904 Y172.421
G1 F1800 X114.999 Y162.517 E60.0248
G0 F3600 X114.999 Y163.082
G1 F1800 X124.904 Y172.987 E60.2883
G0 F3600 X124.904 Y173.552
G1 F1800 X114.999 Y163.648 E60.55178
G0 F3600 X114.999 Y164.214
G1 F1800 X124.904 Y174.118 E60.81526
G0 F3600 X124.904 Y174.684
G1 F1800 X114.999 Y164.779 E61.07875
G0 F3600 X114.999 Y165.345
G1 F1800 X124.904 Y175.25 E61.34225
G0 F3600 X124.904 Y175.815
G1 F1800 X114.999 Y165.911 E61.60573
G0 F3600 X114.999 Y166.476
G1 F1800 X124.904 Y176.381 E61.86922
G0 F3600 X124.904 Y176.947
G1 F1800 X114.999 Y167.042 E62.13272
G0 F3600 X114.999 Y167.608
G1 F1800 X124.904 Y177.512 E62.3962
G0 F3600 X124.904 Y178.078
G1 F1800 X114.999 Y168.174 E62.65968
G0 F3600 X114.999 Y168.739
G1 F1800 X124.904 Y178.644 E62.92317
G0 F3600 X124.904 Y179.209
G1 F1800 X114.999 Y169.305 E63.18665
G0 F3600 X114.999 Y169.871
G1 F1800 X124.904 Y179.775 E63.45014
G0 F3600 X124.904 Y180.341
G1 F1800 X114.999 Y170.436 E63.71363
G0 F3600 X114.999 Y171.002
G1 F1800 X124.807 Y180.81 E63.97454
G0 F3600 X124.241 Y180.81
G1 F1800 X114.999 Y171.568 E64.2204
G0 F3600 X114.999 Y172.133
G1 F1800 X123.675 Y180.81 E64.45121
G0 F3600 X123.11 Y180.81
G1 F1800 X114.999 Y172.699 E64.66698
G0 F3600 X114.999 Y173.265
G1 F1800 X122.544 Y180.81 E64.8677
G0 F3600 X121.978 Y180.81
G1 F1800 X114.999 Y173.83 E65.05337
G0 F3600 X114.999 Y174.396
G1 F1800 X121.413 Y180.81 E65.22399
G0 F3600 X120.847 Y180.81
G1 F1800 X114.999 Y174.962 E65.37956
G0 F3600 X114.999 Y175.527
G1 F1800 X120.281 Y180.81 E65.52009
G0 F3600 X119.716 Y180.81
G1 F1800 X114.999 Y176.093 E65.64557
G0 F3600 X114.999 Y176.659
G1 F1800 X119.15 Y180.81 E65.756
G0 F3600 X118.584 Y180.81
G1 F1800 X114.999 Y177.225 E65.85136
G0 F3600 X114.999 Y177.79
G1 F1800 X118.018 Y180.81 E65.93169
G0 F3600 X117.453 Y180.81
G1 F1800 X114.999 Y178.356 E65.99697
G0 F3600 X114.999 Y178.922
G1 F1800 X116.887 Y180.81 E66.0472
G0 F3600 X116.321 Y180.81
G1 F1800 X114.999 Y179.487 E66.08238
G0 F3600 X114.999 Y180.053
G1 F1800 X115.756 Y180.81 E66.10252
G0 F3600 X115.19 Y180.81
G1 F1800 X114.999 Y180.619 E66.1076
G0 F3600 X125.446 Y150.743
G0 X145.069 Y150.743
G0 X145.61 Y180.683
G1 F1800 X145.737 Y180.81 E66.11097
G0 F3600 X146.303 Y180.81
G1 F1800 X145.61 Y180.117 E66.12941
G0 F3600 X145.61 Y179.552
G1 F1800 X146.868 Y180.81 E66.16288
G0 F3600 X147.434 Y180.81
G1 F1800 X145.61 Y178.986 E66.2114
G0 F3600 X145.61 Y178.42
G1 F1800 X148 Y180.81 E66.27498
G0 F3600 X148.565 Y180.81
G1 F1800 X145.61 Y177.855 E66.35359
G0 F3600 X145.61 Y177.289
G1 F1800 X149.131 Y180.81 E66.44725
G0 F3600 X149.697 Y180.81
G1 F1800 X145.61 Y176.723 E66.55598
G0 F3600 X145.61 Y176.157
G1 F1800 X150.263 Y180.81 E66.67976
G0 F3600 X150.828 Y180.81
G1 F1800 X145.61 Y175.592 E66.81857
G0 F3600 X145.61 Y175.026
G1 F1800 X151.394 Y180.81 E66.97243
G0 F3600 X151.96 Y180.81
G1 F1800 X145.61 Y174.46 E67.14136
G0 F3600 X145.61 Y173.895
G1 F1800 X152.525 Y180.81 E67.32531
G0 F3600 X153.091 Y180.81
G1 F1800 X145.61 Y173.329 E67.52432
G0 F3600 X145.61 Y172.763
G1 F1800 X153.657 Y180.81 E67.73839
G0 F3600 X154.222 Y180.81
G1 F1800 X145.61 Y172.198 E67.96749
G0 F3600 X145.61 Y171.632
G1 F1800 X154.788 Y180.81 E68.21164
G0 F3600 X155.354 Y180.81
G1 F1800 X145.61 Y171.066 E68.47085
G0 F3600 X145.61 Y170.501
G1 F1800 X155.515 Y180.405 E68.73433
G0 F3600 X155.515 Y179.839
G1 F1800 X145.61 Y169.935 E68.99781
G0 F3600 X145.61 Y169.369
G1 F1800 X155.515 Y179.274 E69.26131
G0 F3600 X155.515 Y178.708
G1 F1800 X145.61 Y168.804 E69.52479
G0 F3600 X145.61 Y168.238
G1 F1800 X155.515 Y178.142 E69.78827
G0 F3600 X155.515 Y177.577
G1 F1800 X145.61 Y167.672 E70.05176
G0 F3600 X145.61 Y167.107
G1 F1800 X155.515 Y177.011 E70.31524
G0 F3600 X155.515 Y176.445
G1 F1800 X145.61 Y166.541 E70.57873
G0 F3600 X145.61 Y165.975
G1 F1800 X155.515 Y175.88 E70.84222
G0 F3600 X155.515 Y175.314
G1 F1800 X145.61 Y165.409 E71.10571
G0 F3600 X145.61 Y164.844
G1 F1800 X155.515 Y174.748 E71.36919
G0 F3600 X155.515 Y174.183
G1 F1800 X145.61 Y164.278 E71.63269
G0 F3600 X145.61 Y163.712
G1 F1800 X155.515 Y173.617 E71.89618
G0 F3600 X155.515 Y173.051
G1 F1800 X145.61 Y163.147 E72.15966
G0 F3600 X145.61 Y162.581
G1 F1800 X155.515 Y172.485 E72.42314
G0 F3600 X155.515 Y171.92
