;FLAVOR:Marlin
;TIME:694
;Filament used: 0.205549m, 0m
;Layer height: 0.2
;MINX:89.341
;MINY:94.335
;MINZ:0.3
;MAXX:109.798
;MAXY:105.665
;MAXZ:19.9
;Generated with Cura_SteamEngine 4.7.1
T0
M104 S200
M105
M109 S200
M82 ;absolute extrusion mode
G28 ;Home
G1 Z15.0 F6000 ;Move the platform down 15mm
;Prime the extruder
G92 E0
G1 F200 E3
G92 E0
G92 E0
G92 E0
G1 F1500 E-6.5
;LAYER_COUNT:99
;LAYER:0
M107
G0 F3600 X99.721 Y95.121 Z0.3
;TYPE:SUPPORT
G1 F1500 E0
G1 F1800 X100.278 Y95.121 E0.01048
G1 X100.279 Y104.879 E0.19403
G1 X99.722 Y104.879 E0.20451
G1 X99.721 Y95.121 E0.38806
G0 F3600 X99.881 Y96.012
G1 F1800 X100.119 Y96.012 E0.39254
G0 F3600 X100.119 Y98.679
G1 F1800 X99.881 Y98.679 E0.39702
G0 F3600 X99.881 Y101.346
G1 F1800 X100.119 Y101.346 E0.40149
G0 F3600 X100.119 Y104.013
G1 F1800 X99.881 Y104.013 E0.40597
G1 F1500 E-6.09403
;MESH:TextM-Text.stl
G0 F3600 X93.748 Y104.013
G0 X92.463 Y104.013
G0 X92.483 Y104.4
;TYPE:WALL-INNER
G1 F1500 E0.40597
G1 F1800 X90.602 Y104.4 E0.44135
G1 X90.602 Y95.6 E0.60688
G1 X92.483 Y95.6 E0.64227
G1 X92.483 Y104.4 E0.8078
G0 F3600 X92.883 Y104.8
;TYPE:WALL-OUTER
G1 F1800 X90.202 Y104.8 E0.85823
G1 X90.202 Y95.2 E1.03881
G1 X92.883 Y95.2 E1.08924
G1 X92.883 Y104.8 E1.26983
G0 F3600 X92.683 Y104.8
G0 X92.093 Y104.01
;TYPE:SKIN
G1 F1800 X90.992 Y104.01 E1.29054
G1 X90.992 Y95.99 E1.4414
G1 X92.093 Y95.99 E1.46211
G1 X92.093 Y104.01 E1.61297
G0 F3600 X91.384 Y103.829
G1 F1800 X91.171 Y103.616 E1.61863
G0 F3600 X91.171 Y103.05
G1 F1800 X91.913 Y103.792 E1.63837
G0 F3600 X91.913 Y103.226
G1 F1800 X91.171 Y102.485 E1.6581
G0 F3600 X91.171 Y101.919
G1 F1800 X91.913 Y102.661 E1.67784
G0 F3600 X91.913 Y102.095
G1 F1800 X91.171 Y101.353 E1.69758
G0 F3600 X91.171 Y100.788
G1 F1800 X91.913 Y101.529 E1.7173
G0 F3600 X91.913 Y100.964
G1 F1800 X91.171 Y100.222 E1.73704
G0 F3600 X91.171 Y99.656
G1 F1800 X91.913 Y100.398 E1.75678
G0 F3600 X91.913 Y99.832
G1 F1800 X91.171 Y99.091 E1.7765
G0 F3600 X91.171 Y98.525
G1 F1800 X91.913 Y99.267 E1.79624
G0 F3600 X91.913 Y98.701
G1 F1800 X91.171 Y97.959 E1.81598
G0 F3600 X91.171 Y97.394
G1 F1800 X91.913 Y98.135 E1.83571
G0 F3600 X91.913 Y97.57
G1 F1800 X91.171 Y96.828 E1.85545
G0 F3600 X91.171 Y96.262
G1 F1800 X91.913 Y97.004 E1.87518
G0 F3600 X91.913 Y96.438
G1 F1800 X91.643 Y96.169 E1.88235
G1 F1500 E-4.61765
G0 F3600 X92.463 Y104.33
G0 X93.748 Y104.33
G0 X106.252 Y104.33
G0 X107.537 Y104.33
G0 X109.328 Y104.33
G0 X109.398 Y104.4
;TYPE:WALL-INNER
G1 F1500 E1.88235
G1 F1800 X107.517 Y104.4 E1.91774
G1 X107.517 Y95.6 E2.08327
G1 X109.398 Y95.6 E2.11865
G1 X109.398 Y104.4 E2.28419
G0 F3600 X109.798 Y104.8
;TYPE:WALL-OUTER
G1 F1800 X107.117 Y104.8 E2.33462
G1 X107.117 Y95.2 E2.5152
G1 X109.798 Y95.2 E2.56563
G1 X109.798 Y104.8 E2.74621
G0 F3600 X109.598 Y104.8
G0 X109.008 Y104.01
;TYPE:SKIN
G1 F1800 X107.907 Y104.01 E2.76692
G1 X107.907 Y95.99 E2.91778
G1 X109.008 Y95.99 E2.93849
G1 X109.008 Y104.01 E3.08935
G0 F3600 X108.354 Y103.829
G1 F1800 X108.086 Y103.56 E3.0965
G0 F3600 X108.086 Y102.995
G1 F1800 X108.827 Y103.736 E3.11621
G0 F3600 X108.827 Y103.17
G1 F1800 X108.086 Y102.429 E3.13592
G0 F3600 X108.086 Y101.863
G1 F1800 X108.827 Y102.604 E3.15563
G0 F3600 X108.827 Y102.039
G1 F1800 X108.086 Y101.297 E3.17536
G0 F3600 X108.086 Y100.732
G1 F1800 X108.827 Y101.473 E3.19507
G0 F3600 X108.827 Y100.907
G1 F1800 X108.086 Y100.166 E3.21478
G0 F3600 X108.086 Y99.6
G1 F1800 X108.827 Y100.341 E3.23449
G0 F3600 X108.827 Y99.776
G1 F1800 X108.086 Y99.035 E3.25421
G0 F3600 X108.086 Y98.469
G1 F1800 X108.827 Y99.21 E3.27392
G0 F3600 X108.827 Y98.644
G1 F1800 X108.086 Y97.903 E3.29363
G0 F3600 X108.086 Y97.338
G1 F1800 X108.827 Y98.079 E3.31334
G0 F3600 X108.827 Y97.513
G1 F1800 X108.086 Y96.772 E3.33305
G0 F3600 X108.086 Y96.206
G1 F1800 X108.827 Y96.947 E3.35277
G0 F3600 X108.827 Y96.382
G1 F1800 X108.615 Y96.17 E3.35841
G1 F1500 E-3.14159
;MESH:NONMESH
G0 F600 X108.615 Y96.17 Z0.5
G0 F3600 X107.531 Y95.614
G0 X106.252 Y95.614
G0 X99.721 Y95.121
;TIME_ELAPSED:12.567286
;LAYER:1
M106 S255
;TYPE:SUPPORT
G1 F1500 E3.35841
G1 F2700 X99.722 Y104.879 E3.48078
G1 X100.279 Y104.879 E3.48776
G1 X100.278 Y95.121 E3.61013
G1 X99.721 Y95.121 E3.61711
G1 F1500 E-2.88289
;MESH:TextM-Text.stl
G0 F5400 X93.748 Y95.614
G0 X92.469 Y95.614
G0 X92.413 Y104.33
G0 X92.483 Y104.4
;TYPE:WALL-INNER
G1 F1500 E3.61711
G1 F2700 X90.602 Y104.4 E3.6407
G1 X90.602 Y95.6 E3.75106
G1 X92.483 Y95.6 E3.77465
G1 X92.483 Y104.4 E3.885
G0 F5400 X92.883 Y104.8
;TYPE:WALL-OUTER
G1 F1800 X90.202 Y104.8 E3.91862
G1 X90.202 Y95.2 E4.03901
G1 X92.883 Y95.2 E4.07263
G1 X92.883 Y104.8 E4.19302
G0 F5400 X92.683 Y104.8
G0 X92.093 Y104.01
;TYPE:SKIN
G1 F1800 X90.992 Y104.01 E4.20683
G1 X90.992 Y95.99 E4.3074
G1 X92.093 Y95.99 E4.32121
G1 X92.093 Y104.01 E4.42178
G0 F5400 X91.332 Y103.829
G1 F1800 X91.912 Y103.248 E4.43207
G0 F5400 X91.912 Y102.683
G1 F1800 X91.172 Y103.423 E4.4452
G0 F5400 X91.172 Y102.857
G1 F1800 X91.912 Y102.117 E4.45832
G0 F5400 X91.912 Y101.551
G1 F1800 X91.172 Y102.292 E4.47145
G0 F5400 X91.172 Y101.726
G1 F1800 X91.912 Y100.986 E4.48458
G0 F5400 X91.912 Y100.42
G1 F1800 X91.172 Y101.16 E4.4977
G0 F5400 X91.172 Y100.595
G1 F1800 X91.912 Y99.854 E4.51083
G0 F5400 X91.912 Y99.289
G1 F1800 X91.172 Y100.029 E4.52396
G0 F5400 X91.172 Y99.463
G1 F1800 X91.912 Y98.723 E4.53708
G0 F5400 X91.912 Y98.157
G1 F1800 X91.172 Y98.898 E4.55021
G0 F5400 X91.172 Y98.332
G1 F1800 X91.912 Y97.592 E4.56334
G0 F5400 X91.912 Y97.026
G1 F1800 X91.172 Y97.766 E4.57646
G0 F5400 X91.172 Y97.201
G1 F1800 X91.912 Y96.46 E4.5896
G0 F5400 X91.638 Y96.169
G1 F1800 X91.172 Y96.635 E4.59786
G1 F1500 E-1.90214
G0 F5400 X92.463 Y104.33
G0 X93.748 Y104.33
G0 X106.252 Y104.33
G0 X107.537 Y104.33
G0 X109.328 Y104.33
G0 X109.398 Y104.4
;TYPE:WALL-INNER
G1 F1500 E4.59786
G1 F2700 X107.517 Y104.4 E4.62145
G1 X107.517 Y95.6 E4.7318
G1 X109.398 Y95.6 E4.75539
G1 X109.398 Y104.4 E4.86575
G0 F5400 X109.798 Y104.8
;TYPE:WALL-OUTER
G1 F1800 X107.117 Y104.8 E4.89937
G1 X107.117 Y95.2 E5.01976
G1 X109.798 Y95.2 E5.05338
G1 X109.798 Y104.8 E5.17376
G0 F5400 X109.598 Y104.8
G0 X109.008 Y104.01
;TYPE:SKIN
G1 F1800 X107.907 Y104.01 E5.18757
G1 X107.907 Y95.99 E5.28814
G1 X109.008 Y95.99 E5.30195
G1 X109.008 Y104.01 E5.40252
G0 F5400 X108.302 Y103.829
G1 F1800 X108.827 Y103.304 E5.41184
G0 F5400 X108.827 Y102.739
G1 F1800 X108.086 Y103.48 E5.42498
G0 F5400 X108.086 Y102.914
G1 F1800 X108.827 Y102.173 E5.43812
G0 F5400 X108.827 Y101.607
G1 F1800 X108.086 Y102.348 E5.45126
G0 F5400 X108.086 Y101.783
G1 F1800 X108.827 Y101.042 E5.4644
G0 F5400 X108.827 Y100.476
G1 F1800 X108.086 Y101.217 E5.47754
G0 F5400 X108.086 Y100.651
G1 F1800 X108.827 Y99.91 E5.49068
G0 F5400 X108.827 Y99.344
G1 F1800 X108.086 Y100.086 E5.50383
G0 F5400 X108.086 Y99.52
G1 F1800 X108.827 Y98.779 E5.51698
G0 F5400 X108.827 Y98.213
G1 F1800 X108.086 Y98.954 E5.53012
G0 F5400 X108.086 Y98.388
G1 F1800 X108.827 Y97.647 E5.54326
G0 F5400 X108.827 Y97.082
G1 F1800 X108.086 Y97.823 E5.5564
G0 F5400 X108.086 Y97.257
G1 F1800 X108.827 Y96.516 E5.56954
G0 F5400 X108.608 Y96.17
G1 F1800 X108.086 Y96.691 E5.57879
G1 F1500 E-0.92121
;MESH:NONMESH
G0 F600 X108.086 Y96.691 Z0.7
G0 F5400 X107.531 Y95.614
G0 X106.252 Y95.614
G0 X99.721 Y95.121
;TIME_ELAPSED:20.317257
;LAYER:2
;TYPE:SUPPORT
G1 F1500 E5.57879
G1 F3600 X99.722 Y104.879 E5.70116
G1 X100.279 Y104.879 E5.70814
G1 X100.278 Y95.121 E5.83051
G1 X99.721 Y95.121 E5.8375
G1 F1500 E-0.6625
;MESH:TextM-Text.stl
G0 F7200 X93.748 Y95.614
G0 X92.469 Y95.614
G0 X92.413 Y104.33
G0 X92.483 Y104.4
;TYPE:WALL-INNER
G1 F1500 E5.8375
G1 F3600 X90.602 Y104.4 E5.86109
G1 X90.602 Y95.6 E5.97144
G1 X92.483 Y95.6 E5.99503
G1 X92.483 Y104.4 E6.10539
G0 F7200 X92.883 Y104.8
;TYPE:WALL-OUTER
G1 F1800 X90.202 Y104.8 E6.13901
G1 X90.202 Y95.2 E6.25939
G1 X92.883 Y95.2 E6.29301
G1 X92.883 Y104.8 E6.4134
G0 F7200 X92.683 Y104.8
G0 X92.093 Y104.01
;TYPE:SKIN
G1 F1800 X90.992 Y104.01 E6.42721
G1 X90.992 Y95.99 E6.52778
G1 X92.093 Y95.99 E6.54159
G1 X92.093 Y104.01 E6.64216
G0 F7200 X91.384 Y103.829
G1 F1800 X91.171 Y103.616 E6.64594
G0 F7200 X91.171 Y103.05
G1 F1800 X91.913 Y103.792 E6.6591
G0 F7200 X91.913 Y103.226
G1 F1800 X91.171 Y102.485 E6.67225
G0 F7200 X91.171 Y101.919
G1 F1800 X91.913 Y102.661 E6.68541
G0 F7200 X91.913 Y102.095
G1 F1800 X91.171 Y101.353 E6.69857
G0 F7200 X91.171 Y100.788
G1 F1800 X91.913 Y101.529 E6.71172
G0 F7200 X91.913 Y100.964
G1 F1800 X91.171 Y100.222 E6.72488
G0 F7200 X91.171 Y99.656
G1 F1800 X91.913 Y100.398 E6.73804
G0 F7200 X91.913 Y99.832
G1 F1800 X91.171 Y99.091 E6.75119
G0 F7200 X91.171 Y98.525
G1 F1800 X91.913 Y99.267 E6.76435
G0 F7200 X91.913 Y98.701
G1 F1800 X91.171 Y97.959 E6.77751
G0 F7200 X91.171 Y97.394
G1 F1800 X91.913 Y98.135 E6.79066
G0 F7200 X91.913 Y97.57
G1 F1800 X91.171 Y96.828 E6.80382
G0 F7200 X91.171 Y96.262
G1 F1800 X91.913 Y97.004 E6.81698
G0 F7200 X91.913 Y96.438
G1 F1800 X91.643 Y96.169 E6.82176
G1 F1500 E0.32176
G0 F7200 X92.463 Y104.33
G0 X93.748 Y104.33
G0 X106.252 Y104.33
G0 X107.537 Y104.33
G0 X109.328 Y104.33
G0 X109.398 Y104.4
;TYPE:WALL-INNER
G1 F1500 E6.82176
G1 F3600 X107.517 Y104.4 E6.84534
G1 X107.517 Y95.6 E6.9557
G1 X109.398 Y95.6 E6.97929
G1 X109.398 Y104.4 E7.08964
G0 F7200 X109.798 Y104.8
;TYPE:WALL-OUTER
G1 F1800 X107.117 Y104.8 E7.12326
G1 X107.117 Y95.2 E7.24365
G1 X109.798 Y95.2 E7.27727
G1 X109.798 Y104.8 E7.39766
G0 F7200 X109.598 Y104.8
G0 X109.008 Y104.01
;TYPE:SKIN
G1 F1800 X107.907 Y104.01 E7.41147
G1 X107.907 Y95.99 E7.51204
G1 X109.008 Y95.99 E7.52585
G1 X109.008 Y104.01 E7.62642
G0 F7200 X108.354 Y103.829
G1 F1800 X108.086 Y103.56 E7.63118
G0 F7200 X108.086 Y102.995
G1 F1800 X108.827 Y103.736 E7.64432
G0 F7200 X108.827 Y103.17
G1 F1800 X108.086 Y102.429 E7.65747
G0 F7200 X108.086 Y101.863
G1 F1800 X108.827 Y102.604 E7.67061
G0 F7200 X108.827 Y102.039
G1 F1800 X108.086 Y101.297 E7.68376
G0 F7200 X108.086 Y100.732
G1 F1800 X108.827 Y101.473 E7.6969
G0 F7200 X108.827 Y100.907
G1 F1800 X108.086 Y100.166 E7.71004
G0 F7200 X108.086 Y99.6
G1 F1800 X108.827 Y100.341 E7.72318
G0 F7200 X108.827 Y99.776
G1 F1800 X108.086 Y99.035 E7.73632
G0 F7200 X108.086 Y98.469
G1 F1800 X108.827 Y99.21 E7.74946
G0 F7200 X108.827 Y98.644
G1 F1800 X108.086 Y97.903 E7.76261
G0 F7200 X108.086 Y97.338
G1 F1800 X108.827 Y98.079 E7.77575
G0 F7200 X108.827 Y97.513
G1 F1800 X108.086 Y96.772 E7.78889
G0 F7200 X108.086 Y96.206
G1 F1800 X108.827 Y96.947 E7.80203
G0 F7200 X108.827 Y96.382
G1 F1800 X108.615 Y96.17 E7.80579
G1 F1500 E1.30579
;MESH:NONMESH
G0 F600 X108.615 Y96.17 Z0.9
G0 F7200 X107.531 Y95.614
G0 X106.252 Y95.614
G0 X99.721 Y95.121
;TIME_ELAPSED:27.733119
;LAYER:3
;TYPE:SUPPORT
G1 F1500 E7.80579
G1 F3600 X99.722 Y104.879 E7.92816
G1 X100.279 Y104.879 E7.93514
G1 X100.278 Y95.121 E8.05751
G1 X99.721 Y95.121 E8.0645
G1 F1500 E1.5645
;MESH:TextM-Text.stl
G0 F7200 X93.748 Y95.614
G0 X92.469 Y95.614
G0 X92.413 Y104.33
G0 X92.483 Y104.4
;TYPE:WALL-INNER
G1 F1500 E8.0645
G1 F3600 X90.602 Y104.4 E8.08809
G1 X90.602 Y95.6 E8.19844
G1 X92.483 Y95.6 E8.22203
G1 X92.483 Y104.4 E8.33239
G0 F7200 X92.883 Y104.8
;TYPE:WALL-OUTER
G1 F1800 X90.202 Y104.8 E8.36601
G1 X90.202 Y95.2 E8.48639
G1 X92.883 Y95.2 E8.52001
G1 X92.883 Y104.8 E8.6404
G0 F7200 X92.683 Y104.8
G0 X92.093 Y104.01
;TYPE:SKIN
G1 F1800 X90.992 Y104.01 E8.65421
G1 X90.992 Y95.99 E8.75478
G1 X92.093 Y95.99 E8.76859
G1 X92.093 Y104.01 E8.86916
G0 F7200 X91.332 Y103.829
G1 F1800 X91.912 Y103.248 E8.87946
G0 F7200 X91.912 Y102.683
G1 F1800 X91.172 Y103.423 E8.89258
G0 F7200 X91.172 Y102.857
G1 F1800 X91.912 Y102.117 E8.90571
G0 F7200 X91.912 Y101.551
G1 F1800 X91.172 Y102.292 E8.91884
G0 F7200 X91.172 Y101.726
G1 F1800 X91.912 Y100.986 E8.93196
G0 F7200 X91.912 Y100.42
G1 F1800 X91.172 Y101.16 E8.94509
G0 F7200 X91.172 Y100.595
G1 F1800 X91.912 Y99.854 E8.95822
G0 F7200 X91.912 Y99.289
G1 F1800 X91.172 Y100.029 E8.97134
G0 F7200 X91.172 Y99.463
G1 F1800 X91.912 Y98.723 E8.98447
G0 F7200 X91.912 Y98.157
G1 F1800 X91.172 Y98.898 E8.9976
G0 F7200 X91.172 Y98.332
G1 F1800 X91.912 Y97.592 E9.01072
G0 F7200 X91.912 Y97.026
G1 F1800 X91.172 Y97.766 E9.02385
G0 F7200 X91.172 Y97.201
G1 F1800 X91.912 Y96.46 E9.03698
G0 F7200 X91.638 Y96.169
G1 F1800 X91.172 Y96.635 E9.04524
G1 F1500 E2.54524
G0 F7200 X92.463 Y104.33
G0 X93.748 Y104.33
G0 X106.252 Y104.33
G0 X107.537 Y104.33
G0 X109.328 Y104.33
G0 X109.398 Y104.4
;TYPE:WALL-INNER
G1 F1500 E9.04524
G1 F3600 X107.517 Y104.4 E9.06883
G1 X107.517 Y95.6 E9.17919
G1 X109.398 Y95.6 E9.20277
G1 X109.398 Y104.4 E9.31313
G0 F7200 X109.798 Y104.8
;TYPE:WALL-OUTER
G1 F1800 X107.117 Y104.8 E9.34675
G1 X107.117 Y95.2 E9.46714
G1 X109.798 Y95.2 E9.50076
G1 X109.798 Y104.8 E9.62115
G0 F7200 X109.598 Y104.8
G0 X109.008 Y104.01
;TYPE:SKIN
G1 F1800 X107.907 Y104.01 E9.63495
G1 X107.907 Y95.99 E9.73553
G1 X109.008 Y95.99 E9.74933
G1 X109.008 Y104.01 E9.84991
G0 F7200 X108.302 Y103.829
G1 F1800 X108.827 Y103.304 E9.85922
G0 F7200 X108.827 Y102.739
G1 F1800 X108.086 Y103.48 E9.87236
G0 F7200 X108.086 Y102.914
G1 F1800 X108.827 Y102.173 E9.8855
G0 F7200 X108.827 Y101.607
G1 F1800 X108.086 Y102.348 E9.89864
G0 F7200 X108.086 Y101.783
G1 F1800 X108.827 Y101.042 E9.91178
G0 F7200 X108.827 Y100.476
G1 F1800 X108.086 Y101.217 E9.92493
G0 F7200 X108.086 Y100.651
G1 F1800 X108.827 Y99.91 E9.93807
G0 F7200 X108.827 Y99.344
G1 F1800 X108.086 Y100.086 E9.95122
G0 F7200 X108.086 Y99.52
G1 F1800 X108.827 Y98.779 E9.96436
G0 F7200 X108.827 Y98.213
G1 F1800 X108.086 Y98.954 E9.9775
G0 F7200 X108.086 Y98.388
G1 F1800 X108.827 Y97.647 E9.99064
G0 F7200 X108.827 Y97.082
G1 F1800 X108.086 Y97.823 E10.00378
G0 F7200 X108.086 Y97.257
G1 F1800 X108.827 Y96.516 E10.01693
G0 F7200 X108.608 Y96.17
G1 F1800 X108.086 Y96.691 E10.02617
G1 F1500 E3.52617
;MESH:NONMESH
G0 F600 X108.086 Y96.691 Z1.1
G0 F7200 X107.531 Y95.614
G0 X106.252 Y95.614
G0 X99.721 Y95.121
;TIME_ELAPSED:35.088975
;LAYER:4
;TYPE:SUPPORT
G1 F1500 E10.02617
G1 F2708.1 X99.722 Y104.879 E10.14854
G1 X100.279 Y104.879 E10.15553
G1 X100.278 Y95.121 E10.2779
G1 X99.721 Y95.121 E10.28488
G1 F1500 E3.78488
;MESH:TextM-Text.stl
G0 F7200 X93.748 Y95.614
G0 X92.469 Y95.614
G0 X92.322 Y96.363
;TYPE:FILL
G1 F1500 E10.28488
G1 F2708.1 X90.762 Y97.923 E10.31255
G1 X90.692 Y97.993
G0 F7200 X90.702 Y97.993
G0 X90.761 Y96.418
G1 F2708.1 X92.323 Y97.98 E10.34025
G1 X92.393 Y98.05
G0 F7200 X92.383 Y98.05
G0 X92.322 Y102.019
G1 F2708.1 X90.762 Y103.58 E10.36792
G1 X90.692 Y103.65
G0 F7200 X90.702 Y103.65
G0 X90.761 Y102.075
G1 F2708.1 X92.323 Y103.637 E10.39563
G1 X92.393 Y103.707
G0 F7200 X92.483 Y104.4
;TYPE:WALL-INNER
G1 F2708.1 X90.602 Y104.4 E10.41922
G1 X90.602 Y95.6 E10.52957
G1 X92.483 Y95.6 E10.55316
G1 X92.483 Y104.4 E10.66351
G0 F7200 X92.883 Y104.8
;TYPE:WALL-OUTER
G1 F1354.1 X90.202 Y104.8 E10.69713
G1 X90.202 Y95.2 E10.81752
G1 X92.883 Y95.2 E10.85114
G1 X92.883 Y104.8 E10.97153
G0 F7200 X92.683 Y104.8
G0 X92.083 Y104.118
G1 F1500 E4.47153
G0 F7200 X93.748 Y103.637
G0 X106.252 Y103.637
G0 X107.537 Y103.637
G0 X107.676 Y103.637
;TYPE:FILL
G1 F1500 E10.97153
G1 F2708.1 X109.237 Y102.075 E10.99922
G1 X109.307 Y102.005
G0 F7200 X109.298 Y102.005
G0 X109.237 Y103.58
G1 F2708.1 X107.676 Y102.019 E11.02691
G1 X107.606 Y101.949
G0 F7200 X107.617 Y101.949
G0 X107.676 Y97.98
G1 F2708.1 X109.237 Y96.418 E11.0546
G1 X109.307 Y96.348
G0 F7200 X109.298 Y96.348
G0 X109.237 Y97.923
G1 F2708.1 X107.676 Y96.362 E11.08228
G1 X107.606 Y96.292
G0 F7200 X107.617 Y96.292
G0 X109.328 Y104.33
G0 X109.398 Y104.4
;TYPE:WALL-INNER
G1 F2708.1 X107.517 Y104.4 E11.10587
G1 X107.517 Y95.6 E11.21623
G1 X109.398 Y95.6 E11.23982
G1 X109.398 Y104.4 E11.35017
G0 F7200 X109.798 Y104.8
;TYPE:WALL-OUTER
G1 F1354.1 X107.117 Y104.8 E11.38379
G1 X107.117 Y95.2 E11.50418
G1 X109.798 Y95.2 E11.5378
G1 X109.798 Y104.8 E11.65819
G0 F7200 X109.598 Y104.8
G0 X108.998 Y104.118
G1 F1500 E5.15819
;MESH:NONMESH
G0 F600 X108.998 Y104.118 Z1.3
G0 F7200 X107.531 Y95.614
G0 X106.252 Y95.614
G0 X99.721 Y95.121
;TIME_ELAPSED:41.229122
;LAYER:5
;TYPE:SUPPORT
G1 F1500 E11.65819
G1 F2733.3 X99.722 Y104.879 E11.78056
