;FLAVOR:Marlin
;TIME:11165
;Filament used: 2.5428m
;Layer height: 0.1
;MINX:57.098
;MINY:50.346
;MINZ:0.3
;MAXX:143.101
;MAXY:149.654
;MAXZ:16
;Generated with Cura_SteamEngine 4.6.1
M104 S200
M105
M109 S200
M82 ;absolute extrusion mode
G28 ;Home
G1 Z15.0 F6000 ;Move the platform down 15mm
;Prime the extruder
G92 E0
G1 F200 E3
G92 E0
G92 E0
G92 E0
G1 F1500 E-6.5
;LAYER_COUNT:158
;LAYER:0
M107
;MESH:TRIFORCE_2.stl
G0 F3600 X135.841 Y100 Z0.3
;TYPE:WALL-INNER
G1 F1500 E0
G1 F1800 X135.542 Y99.827 E0.0065
G1 X100 Y79.307 E0.77849
G1 X99.4 Y79.655 E0.79154
G1 X99.4 Y120.345 E1.55694
G1 X100 Y120.693 E1.56998
G1 X135.542 Y100.173 E2.34197
G1 X135.841 Y100 E2.34566
G0 F3600 X142.701 Y148.962
G1 F1800 X57.898 Y100 E4.18763
G1 X142.701 Y51.038 E6.02961
G1 X142.701 Y148.962 E7.87162
G0 F3600 X135.482 Y100
G0 X135.041 Y100
;TYPE:WALL-OUTER
G1 F1800 X100 Y79.769 E8.63273
G1 X99.8 Y79.885 E8.63708
G1 X99.8 Y120.115 E9.39383
G1 X100 Y120.231 E9.39818
G1 X135.041 Y100 E10.15929
G0 F3600 X134.868 Y99.9
G0 X135.019 Y99.641
G0 X100.001 Y79.498
G0 X57.598 Y100
G0 X57.196 Y99.944
G1 F1800 X143.101 Y50.346 E12.0252
G1 X143.101 Y149.654 E13.89324
G1 X57.294 Y100.113 E15.75702
G1 X57.099 Y100 E15.76125
G1 X57.196 Y99.944
G0 F3600 X57.369 Y99.844
G0 X57.598 Y100
G0 X58.679 Y100
;TYPE:SKIN
G1 F1800 X142.311 Y51.714 E17.5778
G1 X142.311 Y148.286 E19.39437
G1 X58.679 Y100 E21.21091
G0 F3600 X99.01 Y79.431
G1 F1800 X99.01 Y120.569 E21.98474
G1 X100 Y121.144 E22.00628
G1 X136.621 Y100 E22.80172
G1 X100 Y78.856 E23.59715
G1 X99.01 Y79.431 E23.61869
G0 F3600 X59.185 Y99.914
G1 F1800 X59.584 Y100.313 E23.6293
G0 F3600 X59.544 Y99.707
G1 F1800 X60.922 Y101.086 E23.66597
G1 X60.992 Y101.156
G0 F3600 X62.261 Y101.859
G1 F1800 X59.903 Y99.501 E23.7287
G0 F3600 X60.261 Y99.294
G1 F1800 X63.6 Y102.632 E23.81751
G1 X63.67 Y102.702
G0 F3600 X64.937 Y103.404
G1 F1800 X60.62 Y99.086 E23.93237
G0 F3600 X60.978 Y98.879
G1 F1800 X66.276 Y104.177 E24.07331
G1 X66.346 Y104.247
G0 F3600 X67.614 Y104.95
G1 F1800 X61.337 Y98.672 E24.2403
G0 F3600 X61.695 Y98.465
G1 F1800 X68.953 Y105.723 E24.43338
G1 X69.023 Y105.793
G0 F3600 X70.292 Y106.495
G1 F1800 X62.054 Y98.258 E24.65251
G0 F3600 X62.413 Y98.051
G1 F1800 X71.63 Y107.268 E24.89771
G1 X71.7 Y107.338
G0 F3600 X72.969 Y108.041
G1 F1800 X62.771 Y97.844 E25.16898
G0 F3600 X63.13 Y97.637
G1 F1800 X74.307 Y108.814 E25.46631
G1 X74.377 Y108.884
G0 F3600 X75.645 Y109.586
G1 F1800 X63.488 Y97.43 E25.7897
G0 F3600 X63.847 Y97.222
G1 F1800 X76.984 Y110.359 E26.13917
G1 X77.054 Y110.429
G0 F3600 X78.322 Y111.132
G1 F1800 X64.206 Y97.016 E26.51469
G0 F3600 X64.565 Y96.809
G1 F1800 X79.661 Y111.905 E26.91628
G1 X79.731 Y111.975
G0 F3600 X80.999 Y112.678
G1 F1800 X64.923 Y96.602 E27.34393
G0 F3600 X65.282 Y96.394
G1 F1800 X82.338 Y113.451 E27.79767
G1 X82.408 Y113.521
G0 F3600 X83.676 Y114.223
G1 F1800 X65.64 Y96.187 E28.27747
G0 F3600 X65.999 Y95.981
G1 F1800 X85.015 Y114.996 E28.78332
G1 X85.085 Y115.066
G0 F3600 X86.354 Y115.769
G1 F1800 X66.358 Y95.774 E29.31524
G0 F3600 X66.716 Y95.566
G1 F1800 X87.691 Y116.541 E29.87322
G1 X87.761 Y116.611
G0 F3600 X89.03 Y117.314
G1 F1800 X67.075 Y95.359 E30.45727
G0 F3600 X67.433 Y95.152
G1 F1800 X90.368 Y118.087 E31.06739
G1 X90.438 Y118.157
G0 F3600 X91.707 Y118.86
G1 F1800 X67.792 Y94.945 E31.70359
G0 F3600 X68.151 Y94.738
G1 F1800 X93.046 Y119.633 E32.36585
G1 X93.116 Y119.703
G0 F3600 X94.384 Y120.406
G1 F1800 X68.51 Y94.531 E33.05416
G0 F3600 X68.868 Y94.324
G1 F1800 X95.723 Y121.179 E33.76856
G1 X95.793 Y121.249
G0 F3600 X97.061 Y121.951
G1 F1800 X69.227 Y94.117 E34.50901
G0 F3600 X69.585 Y93.91
G1 F1800 X98.4 Y122.724 E35.27553
G1 X98.47 Y122.794
G0 F3600 X99.738 Y123.496
G1 F1800 X69.944 Y93.702 E36.06812
G0 F3600 X70.303 Y93.496
G1 F1800 X101.076 Y124.269 E36.88675
G1 X101.146 Y124.339
G0 F3600 X102.415 Y125.042
G1 F1800 X70.661 Y93.289 E37.73146
G0 F3600 X71.02 Y93.082
G1 F1800 X103.753 Y125.815 E38.60223
G1 X103.823 Y125.885
G0 F3600 X105.092 Y126.588
G1 F1800 X99.656 Y121.152 E38.74684
G0 F3600 X100.267 Y121.197
G1 F1800 X106.43 Y127.361 E38.9108
G1 X106.5 Y127.431
G0 F3600 X107.769 Y128.134
G1 F1800 X100.626 Y120.99 E39.10083
G0 F3600 X100.984 Y120.783
G1 F1800 X109.107 Y128.906 E39.31692
G1 X109.177 Y128.976
G0 F3600 X110.446 Y129.679
G1 F1800 X101.343 Y120.576 E39.55908
G0 F3600 X101.701 Y120.369
G1 F1800 X111.784 Y130.452 E39.82731
G1 X111.854 Y130.522
G0 F3600 X113.122 Y131.224
G1 F1800 X102.06 Y120.162 E40.12158
G0 F3600 X102.418 Y119.955
G1 F1800 X114.461 Y131.997 E40.44194
G1 X114.531 Y132.067
G0 F3600 X115.8 Y132.77
G1 F1800 X102.777 Y119.748 E40.78836
G0 F3600 X103.136 Y119.541
G1 F1800 X117.138 Y133.543 E41.16085
G1 X117.208 Y133.613
G0 F3600 X118.477 Y134.316
G1 F1800 X103.494 Y119.334 E41.55941
G0 F3600 X103.853 Y119.126
G1 F1800 X119.815 Y135.089 E41.98405
G1 X119.885 Y135.159
G0 F3600 X121.154 Y135.862
G1 F1800 X104.211 Y118.919 E42.43477
G0 F3600 X104.57 Y118.712
G1 F1800 X122.492 Y136.634 E42.91153
G1 X122.562 Y136.704
G0 F3600 X123.83 Y137.407
G1 F1800 X104.929 Y118.506 E43.41434
G0 F3600 X105.288 Y118.298
G1 F1800 X125.169 Y138.179 E43.94322
G1 X125.239 Y138.249
G0 F3600 X126.507 Y138.952
G1 F1800 X105.646 Y118.091 E44.49817
G0 F3600 X106.005 Y117.884
G1 F1800 X127.846 Y139.725 E45.07918
G1 X127.916 Y139.795
G0 F3600 X129.184 Y140.498
G1 F1800 X106.363 Y117.677 E45.68627
G0 F3600 X106.722 Y117.47
G1 F1800 X130.523 Y141.271 E46.31943
G1 X130.593 Y141.341
G0 F3600 X131.861 Y142.044
G1 F1800 X107.081 Y117.263 E46.97864
G0 F3600 X107.439 Y117.056
G1 F1800 X133.2 Y142.817 E47.66394
G1 X133.27 Y142.887
G0 F3600 X134.538 Y143.589
G1 F1800 X107.798 Y116.849 E48.37528
G0 F3600 X108.156 Y116.642
G1 F1800 X135.876 Y144.362 E49.11269
G1 X135.946 Y144.432
G0 F3600 X137.215 Y145.135
G1 F1800 X108.515 Y116.435 E49.87617
G0 F3600 X108.874 Y116.228
G1 F1800 X138.554 Y145.907 E50.66571
G1 X138.624 Y145.977
G0 F3600 X139.892 Y146.68
G1 F1800 X109.233 Y116.021 E51.48131
G0 F3600 X109.591 Y115.814
G1 F1800 X141.231 Y147.453 E52.32299
G1 X141.301 Y147.523
G0 F3600 X142.13 Y147.221
G1 F1800 X110.308 Y115.399 E53.16952
G0 F3600 X109.95 Y115.607
G1 F1800 X142.13 Y147.787 E54.02558
G1 X142.2 Y147.857
G0 F3600 X142.13 Y146.656
G1 F1800 X110.667 Y115.192 E54.86257
G0 F3600 X111.026 Y114.986
G1 F1800 X142.13 Y146.09 E55.69001
G0 F3600 X142.13 Y145.524
G1 F1800 X111.384 Y114.778 E56.50792
G0 F3600 X111.743 Y114.571
G1 F1800 X142.13 Y144.959 E57.31629
G0 F3600 X142.13 Y144.393
G1 F1800 X112.101 Y114.364 E58.11513
G0 F3600 X112.46 Y114.157
G1 F1800 X142.13 Y143.827 E58.90441
G0 F3600 X142.13 Y143.261
G1 F1800 X112.819 Y113.95 E59.68415
G0 F3600 X113.178 Y113.743
G1 F1800 X142.13 Y142.696 E60.45434
G0 F3600 X142.13 Y142.13
G1 F1800 X113.536 Y113.536 E61.21501
G0 F3600 X113.895 Y113.329
G1 F1800 X142.13 Y141.564 E61.96612
G0 F3600 X142.13 Y140.999
G1 F1800 X114.253 Y113.122 E62.70771
G0 F3600 X114.612 Y112.915
G1 F1800 X142.13 Y140.433 E63.43974
G0 F3600 X142.13 Y139.867
G1 F1800 X114.971 Y112.708 E64.16223
G0 F3600 X115.329 Y112.501
G1 F1800 X142.13 Y139.302 E64.8752
G0 F3600 X142.13 Y138.736
G1 F1800 X115.688 Y112.294 E65.57861
G0 F3600 X116.046 Y112.087
G1 F1800 X142.13 Y138.17 E66.27249
G0 F3600 X142.13 Y137.605
G1 F1800 X116.405 Y111.879 E66.95684
G0 F3600 X116.763 Y111.672
G1 F1800 X142.13 Y137.039 E67.63166
G0 F3600 X142.13 Y136.473
G1 F1800 X117.123 Y111.466 E68.2969
G0 F3600 X117.481 Y111.259
G1 F1800 X142.13 Y135.908 E68.95261
G0 F3600 X142.13 Y135.342
G1 F1800 X117.84 Y111.051 E69.59879
G0 F3600 X118.198 Y110.844
G1 F1800 X142.13 Y134.776 E70.23543
G0 F3600 X142.13 Y134.21
G1 F1800 X118.557 Y110.637 E70.86253
G0 F3600 X118.916 Y110.43
G1 F1800 X142.13 Y133.645 E71.48008
G0 F3600 X142.13 Y133.079
G1 F1800 X119.274 Y110.223 E72.0881
G0 F3600 X119.633 Y110.016
G1 F1800 X142.13 Y132.513 E72.68657
G0 F3600 X142.13 Y131.948
G1 F1800 X119.991 Y109.809 E73.27551
G0 F3600 X120.35 Y109.602
G1 F1800 X142.13 Y131.382 E73.85491
G0 F3600 X142.13 Y130.816
G1 F1800 X120.708 Y109.395 E74.42477
G0 F3600 X121.067 Y109.188
G1 F1800 X142.13 Y130.251 E74.98509
G0 F3600 X142.13 Y129.685
G1 F1800 X121.426 Y108.981 E75.53586
G0 F3600 X121.785 Y108.774
G1 F1800 X142.13 Y129.119 E76.07708
G0 F3600 X142.13 Y128.554
G1 F1800 X122.143 Y108.567 E76.60878
G0 F3600 X122.502 Y108.359
G1 F1800 X142.13 Y127.988 E77.13094
G0 F3600 X142.13 Y127.422
G1 F1800 X122.86 Y108.152 E77.64356
G0 F3600 X123.219 Y107.946
G1 F1800 X142.13 Y126.857 E78.14663
G0 F3600 X142.13 Y126.291
G1 F1800 X123.578 Y107.739 E78.64016
G0 F3600 X123.936 Y107.531
G1 F1800 X142.13 Y125.725 E79.12416
G0 F3600 X142.13 Y125.16
G1 F1800 X124.295 Y107.324 E79.59862
G0 F3600 X124.653 Y107.117
G1 F1800 X142.13 Y124.594 E80.06354
G0 F3600 X142.13 Y124.028
G1 F1800 X125.012 Y106.91 E80.51892
G0 F3600 X125.371 Y106.703
G1 F1800 X142.13 Y123.462 E80.96474
G0 F3600 X142.13 Y122.897
G1 F1800 X125.729 Y106.496 E81.40105
G0 F3600 X126.088 Y106.289
G1 F1800 X142.13 Y122.331 E81.8278
G0 F3600 X142.13 Y121.765
G1 F1800 X126.446 Y106.082 E82.24501
G0 F3600 X126.805 Y105.875
G1 F1800 X142.13 Y121.2 E82.65269
G0 F3600 X142.13 Y120.634
G1 F1800 X127.164 Y105.668 E83.05082
G0 F3600 X127.523 Y105.461
G1 F1800 X142.13 Y120.068 E83.4394
G0 F3600 X142.13 Y119.503
G1 F1800 X127.881 Y105.254 E83.81845
G0 F3600 X128.24 Y105.047
G1 F1800 X142.13 Y118.937 E84.18795
G0 F3600 X142.13 Y118.371
G1 F1800 X128.598 Y104.839 E84.54793
G0 F3600 X128.957 Y104.632
G1 F1800 X142.13 Y117.806 E84.89838
G0 F3600 X142.13 Y117.24
G1 F1800 X129.316 Y104.426 E85.23926
G0 F3600 X129.674 Y104.219
G1 F1800 X142.13 Y116.674 E85.5706
G0 F3600 X142.13 Y116.109
G1 F1800 X130.033 Y104.011 E85.89242
G0 F3600 X130.391 Y103.804
G1 F1800 X142.13 Y115.543 E86.2047
G0 F3600 X142.13 Y114.977
G1 F1800 X130.75 Y103.597 E86.50743
G0 F3600 X131.108 Y103.39
G1 F1800 X142.13 Y114.411 E86.80063
G0 F3600 X142.13 Y113.846
G1 F1800 X131.468 Y103.183 E87.08427
G0 F3600 X131.826 Y102.976
G1 F1800 X142.13 Y113.28 E87.35838
G0 F3600 X142.13 Y112.714
G1 F1800 X132.185 Y102.769 E87.62294
G0 F3600 X132.543 Y102.562
G1 F1800 X142.13 Y112.149 E87.87798
G0 F3600 X142.13 Y111.583
G1 F1800 X132.902 Y102.355 E88.12346
G0 F3600 X133.261 Y102.148
G1 F1800 X142.13 Y111.017 E88.3594
G0 F3600 X142.13 Y110.452
G1 F1800 X133.619 Y101.941 E88.58581
G0 F3600 X133.978 Y101.734
G1 F1800 X142.13 Y109.886 E88.80267
G0 F3600 X142.13 Y109.32
G1 F1800 X134.336 Y101.527 E89.00999
G0 F3600 X134.695 Y101.319
G1 F1800 X142.13 Y108.755 E89.20779
G0 F3600 X142.13 Y108.189
G1 F1800 X135.053 Y101.112 E89.39605
G0 F3600 X135.413 Y100.906
G1 F1800 X142.13 Y107.623 E89.57474
G0 F3600 X142.13 Y107.058
G1 F1800 X135.771 Y100.699 E89.7439
G0 F3600 X136.13 Y100.491
G1 F1800 X142.13 Y106.492 E89.90353
G0 F3600 X142.13 Y105.926
G1 F1800 X136.488 Y100.284 E90.05362
G0 F3600 X136.847 Y100.077
G1 F1800 X142.13 Y105.361 E90.19417
G0 F3600 X142.13 Y104.795
G1 F1800 X108.676 Y71.341 E91.08412
G0 F3600 X108.317 Y71.547
G1 F1800 X136.479 Y99.709 E91.83329
G1 X136.549 Y99.779
G0 F3600 X135.14 Y98.936
G1 F1800 X107.958 Y71.755 E92.55638
G0 F3600 X107.6 Y71.962
G1 F1800 X133.802 Y98.164 E93.25341
G1 X133.872 Y98.234
G0 F3600 X132.463 Y97.391
G1 F1800 X107.241 Y72.169 E93.92436
G0 F3600 X106.883 Y72.376
G1 F1800 X131.125 Y96.618 E94.56925
G1 X131.195 Y96.688
G0 F3600 X129.786 Y95.845
G1 F1800 X106.524 Y72.583 E95.18807
G0 F3600 X106.165 Y72.79
G1 F1800 X128.448 Y95.072 E95.78083
G1 X128.518 Y95.142
G0 F3600 X127.11 Y94.3
G1 F1800 X105.807 Y72.997 E96.34754
G0 F3600 X105.448 Y73.204
G1 F1800 X125.771 Y93.527 E96.88818
G1 X125.841 Y93.597
G0 F3600 X124.433 Y92.754
G1 F1800 X105.09 Y73.411 E97.40274
G0 F3600 X104.731 Y73.619
G1 F1800 X123.094 Y91.981 E97.89122
G1 X123.164 Y92.051
G0 F3600 X121.756 Y91.208
G1 F1800 X104.373 Y73.826 E98.35363
G0 F3600 X104.013 Y74.032
G1 F1800 X120.417 Y90.436 E98.79002
G1 X120.487 Y90.506
G0 F3600 X119.078 Y89.663
G1 F1800 X103.655 Y74.239 E99.20031
G0 F3600 X103.296 Y74.447
G1 F1800 X117.74 Y88.89 E99.58454
G1 X117.81 Y88.96
G0 F3600 X116.402 Y88.118
G1 F1800 X102.938 Y74.654 E99.94271
G0 F3600 X102.579 Y74.861
G1 F1800 X115.063 Y87.345 E100.27481
G1 X115.133 Y87.415
G0 F3600 X113.725 Y86.572
G1 F1800 X102.22 Y75.067 E100.58087
G0 F3600 X101.862 Y75.275
G1 F1800 X112.386 Y85.799 E100.86083
G1 X112.456 Y85.869
G0 F3600 X111.048 Y85.026
G1 F1800 X101.503 Y75.482 E101.11474
G0 F3600 X101.145 Y75.689
G1 F1800 X109.709 Y84.253 E101.34256
G1 X109.779 Y84.323
G0 F3600 X108.371 Y83.481
G1 F1800 X100.786 Y75.896 E101.54434
G0 F3600 X100.428 Y76.103
G1 F1800 X107.033 Y82.708 E101.72004
G1 X107.103 Y82.778
G0 F3600 X105.694 Y81.935
G1 F1800 X100.069 Y76.31 E101.86968
G0 F3600 X99.71 Y76.517
G1 F1800 X104.356 Y81.163 E101.99327
G1 X104.426 Y81.233
G0 F3600 X103.017 Y80.39
G1 F1800 X99.352 Y76.724 E102.09078
G0 F3600 X98.993 Y76.931
G1 F1800 X101.679 Y79.617 E102.16224
G1 X101.749 Y79.687
G0 F3600 X100.34 Y78.844
G1 F1800 X98.635 Y77.138 E102.20761
G0 F3600 X98.275 Y77.345
G1 F1800 X99.732 Y78.802 E102.24637
G0 F3600 X99.374 Y79.009
G1 F1800 X97.917 Y77.552 E102.28513
G0 F3600 X97.558 Y77.759
G1 F1800 X99.016 Y79.217 E102.32391
G0 F3600 X98.83 Y79.596
G1 F1800 X97.2 Y77.967 E102.36726
G0 F3600 X96.841 Y78.174
G1 F1800 X98.83 Y80.162 E102.42016
G0 F3600 X98.83 Y80.728
G1 F1800 X96.483 Y78.381 E102.48259
G0 F3600 X96.124 Y78.587
G1 F1800 X98.83 Y81.293 E102.55458
G0 F3600 X98.83 Y81.859
G1 F1800 X95.765 Y78.795 E102.6361
G0 F3600 X95.407 Y79.002
G1 F1800 X98.83 Y82.425 E102.72716
G0 F3600 X98.83 Y82.991
G1 F1800 X95.048 Y79.209 E102.82777
G0 F3600 X94.69 Y79.416
G1 F1800 X98.83 Y83.556 E102.9379
G0 F3600 X98.83 Y84.122
G1 F1800 X94.331 Y79.623 E103.05759
G0 F3600 X93.972 Y79.83
G1 F1800 X98.83 Y84.688 E103.18682
G0 F3600 X98.83 Y85.253
G1 F1800 X93.613 Y80.037 E103.32559
G0 F3600 X93.255 Y80.244
G1 F1800 X98.83 Y85.819 E103.4739
G0 F3600 X98.83 Y86.385
G1 F1800 X92.896 Y80.451 E103.63175
G0 F3600 X92.538 Y80.658
G1 F1800 X98.83 Y86.95 E103.79913
G0 F3600 X98.83 Y87.516
G1 F1800 X92.179 Y80.865 E103.97606
G0 F3600 X91.82 Y81.072
G1 F1800 X98.83 Y88.082 E104.16255
G0 F3600 X98.83 Y88.647
G1 F1800 X91.462 Y81.279 E104.35855
G0 F3600 X91.103 Y81.486
G1 F1800 X98.83 Y89.213 E104.5641
G0 F3600 X98.83 Y89.779
G1 F1800 X90.745 Y81.694 E104.77918
G0 F3600 X90.386 Y81.901
G1 F1800 X98.83 Y90.344 E105.0038
G0 F3600 X98.83 Y90.91
G1 F1800 X90.027 Y82.107 E105.23798
G0 F3600 X89.668 Y82.315
G1 F1800 X98.83 Y91.476 E105.48169
G0 F3600 X98.83 Y92.041
G1 F1800 X89.31 Y82.522 E105.73493
G0 F3600 X88.951 Y82.729
G1 F1800 X98.83 Y92.607 E105.99772
G0 F3600 X98.83 Y93.173
G1 F1800 X88.593 Y82.936 E106.27005
G0 F3600 X88.234 Y83.143
G1 F1800 X98.83 Y93.739 E106.55192
G0 F3600 X98.83 Y94.304
G1 F1800 X87.875 Y83.35 E106.84334
G0 F3600 X87.517 Y83.557
G1 F1800 X98.83 Y94.87 E107.14429
G0 F3600 X98.83 Y95.436
G1 F1800 X87.158 Y83.764 E107.45479
G0 F3600 X86.8 Y83.971
G1 F1800 X98.83 Y96.001 E107.77481
G0 F3600 X98.83 Y96.567
G1 F1800 X86.441 Y84.178 E108.10438
G0 F3600 X86.082 Y84.385
G1 F1800 X98.83 Y97.133 E108.44351
G0 F3600 X98.83 Y97.698
G1 F1800 X85.723 Y84.592 E108.79217
G0 F3600 X85.365 Y84.799
G1 F1800 X98.83 Y98.264 E109.15037
G0 F3600 X98.83 Y98.83
G1 F1800 X85.006 Y85.006 E109.51812
G0 F3600 X84.648 Y85.214
G1 F1800 X98.83 Y99.395 E109.89537
G0 F3600 X98.83 Y99.961
G1 F1800 X84.289 Y85.421 E110.28218
G0 F3600 X83.93 Y85.627
G1 F1800 X98.83 Y100.527 E110.67855
G0 F3600 X98.83 Y101.092
G1 F1800 X83.572 Y85.834 E111.08445
G0 F3600 X83.213 Y86.042
G1 F1800 X98.83 Y101.658 E111.49988
G0 F3600 X98.83 Y102.224
G1 F1800 X82.855 Y86.249 E111.92485
G0 F3600 X82.496 Y86.456
G1 F1800 X98.83 Y102.789 E112.35936
G0 F3600 X98.83 Y103.355
G1 F1800 X82.138 Y86.663 E112.8034
G0 F3600 X81.779 Y86.87
G1 F1800 X98.83 Y103.921 E113.25699
G0 F3600 X98.83 Y104.487
G1 F1800 X81.42 Y87.077 E113.72014
G0 F3600 X81.062 Y87.284
G1 F1800 X98.83 Y105.052 E114.1928
G0 F3600 X98.83 Y105.618
G1 F1800 X80.703 Y87.491 E114.67502
G0 F3600 X80.345 Y87.698
G1 F1800 X98.83 Y106.184 E115.16678
G0 F3600 X98.83 Y106.749
G1 F1800 X79.985 Y87.905 E115.66808
G0 F3600 X79.627 Y88.112
