;FLAVOR:Marlin
;TIME:10921
;Filament used: 2.70636m
;Layer height: 0.1
;MINX:68.816
;MINY:42.035
;MINZ:0.3
;MAXX:157.375
;MAXY:130.595
;MAXZ:14.7
;Generated with Cura_SteamEngine 4.6.1
M104 S200
M105
M109 S200
M82 ;absolute extrusion mode
G28 ;Home
G1 Z15.0 F6000 ;Move the platform down 15mm
;Prime the extruder
G92 E0
G1 F200 E3
G92 E0
G92 E0
G92 E0
G1 F1500 E-6.5
;LAYER_COUNT:145
;LAYER:0
M107
;MESH:TRIFORCE_2.stl
G0 F3600 X69.661 Y128.984 Z0.3
;TYPE:WALL-INNER
G1 F1500 E0
G1 F1800 X92.75 Y42.807 E1.67821
G1 X156.602 Y106.658 E3.3768
G1 X69.715 Y129.94 E5.06885
G1 X69.381 Y130.029 E5.07535
G1 X69.47 Y129.695 E5.07904
G1 X69.661 Y128.984 E5.09288
G0 F3600 X110.897 Y111.865
G1 F1800 X111.566 Y111.685 E5.10592
G1 X121.369 Y75.102 E5.81834
G1 X121.043 Y74.776 E5.82701
G1 X85.156 Y84.391 E6.52588
G1 X84.46 Y84.578 E6.53943
G1 X84.28 Y85.247 E6.55246
G1 X110.897 Y111.865 E7.26055
G0 F3600 X121.212 Y75.299
G0 X120.923 Y75.222
;TYPE:WALL-OUTER
G1 F1800 X120.589 Y75.311 E7.26705
G1 X85.26 Y84.777 E7.95505
G1 X84.927 Y84.867 E7.96154
G1 X84.786 Y84.905 E7.96428
G1 X84.726 Y85.128 E7.96863
G1 X84.829 Y85.231 E7.97137
G1 X111.016 Y111.419 E8.66801
G1 X111.239 Y111.359 E8.67236
G1 X120.834 Y75.556 E9.3696
G1 X120.923 Y75.222 E9.37328
G0 F3600 X120.73 Y75.273
G0 X120.654 Y74.984
G0 X92.666 Y42.442
G0 X92.44 Y42.424
G1 F1800 X92.485 Y42.254 E9.37659
G1 X92.544 Y42.035 E9.38085
G1 X92.623 Y42.114
G1 X92.747 Y42.238 E9.38342
G1 X157.375 Y106.865 E11.10265
G1 X69.388 Y130.441 E12.81612
G1 X69.15 Y130.505 E12.82076
G1 X68.816 Y130.595 E12.82726
G1 X68.905 Y130.261 E12.83095
G1 X69.275 Y128.881 E12.85782
G1 X92.44 Y42.424 E14.54149
G0 F3600 X92.485 Y42.254
G0 X92.491 Y42.23
G0 X92.587 Y42.257
G0 X92.953 Y43.56
;TYPE:SKIN
G1 F1800 X155.849 Y106.455 E16.21465
G1 X69.933 Y129.477 E17.88779
G1 X70.038 Y129.085 E17.89543
G1 X92.953 Y43.56 E19.56094
G0 F3600 X85.055 Y84.014
G1 F1800 X84.142 Y84.26 E19.57873
G1 X83.845 Y85.364 E19.60023
G1 X110.78 Y112.3 E20.31678
G1 X111.884 Y112.003 E20.33828
G1 X121.804 Y74.985 E21.05918
G1 X121.16 Y74.341 E21.07631
G1 X85.055 Y84.014 E21.77942
G0 F3600 X70.347 Y129.178
G1 F1800 X70.23 Y129.061 E21.78253
G0 F3600 X70.35 Y128.615
G1 F1800 X70.793 Y129.059 E21.79433
G0 F3600 X71.239 Y128.939
G1 F1800 X70.469 Y128.169 E21.81481
G0 F3600 X70.589 Y127.723
G1 F1800 X71.685 Y128.82 E21.84398
G0 F3600 X72.131 Y128.7
G1 F1800 X70.708 Y127.277 E21.88184
G0 F3600 X70.828 Y126.83
G1 F1800 X72.578 Y128.581 E21.9284
G0 F3600 X73.024 Y128.461
G1 F1800 X70.947 Y126.384 E21.98366
G0 F3600 X71.067 Y125.938
G1 F1800 X73.47 Y128.342 E22.04759
G0 F3600 X73.916 Y128.222
G1 F1800 X71.186 Y125.492 E22.12022
G0 F3600 X71.306 Y125.046
G1 F1800 X74.362 Y128.102 E22.20151
G0 F3600 X74.808 Y127.982
G1 F1800 X71.425 Y124.599 E22.29151
G0 F3600 X71.545 Y124.153
G1 F1800 X75.254 Y127.863 E22.39019
G0 F3600 X75.7 Y127.743
G1 F1800 X71.664 Y123.707 E22.49756
G0 F3600 X71.784 Y123.261
G1 F1800 X76.146 Y127.624 E22.61361
G0 F3600 X76.593 Y127.504
G1 F1800 X71.903 Y122.815 E22.73836
G0 F3600 X72.023 Y122.369
G1 F1800 X77.039 Y127.385 E22.8718
G0 F3600 X77.485 Y127.265
G1 F1800 X72.143 Y121.923 E23.0139
G0 F3600 X72.262 Y121.477
G1 F1800 X77.931 Y127.146 E23.16471
G0 F3600 X78.377 Y127.026
G1 F1800 X72.382 Y121.031 E23.32419
G0 F3600 X72.501 Y120.585
G1 F1800 X78.824 Y126.907 E23.49238
G0 F3600 X79.27 Y126.787
G1 F1800 X72.621 Y120.138 E23.66926
G0 F3600 X72.74 Y119.692
G1 F1800 X79.716 Y126.668 E23.85484
G0 F3600 X80.162 Y126.548
G1 F1800 X72.86 Y119.246 E24.04909
G0 F3600 X72.979 Y118.8
G1 F1800 X80.608 Y126.429 E24.25203
G0 F3600 X81.054 Y126.309
G1 F1800 X73.099 Y118.354 E24.46365
G0 F3600 X73.218 Y117.907
G1 F1800 X81.5 Y126.189 E24.68397
G0 F3600 X81.946 Y126.07
G1 F1800 X73.338 Y117.461 E24.91298
G0 F3600 X73.457 Y117.015
G1 F1800 X82.392 Y125.95 E25.15067
G0 F3600 X82.838 Y125.831
G1 F1800 X73.577 Y116.569 E25.39704
G0 F3600 X73.696 Y116.123
G1 F1800 X83.285 Y125.711 E25.65212
G0 F3600 X83.731 Y125.592
G1 F1800 X73.816 Y115.677 E25.91588
G0 F3600 X73.935 Y115.23
G1 F1800 X84.177 Y125.472 E26.18834
G0 F3600 X84.623 Y125.353
G1 F1800 X74.055 Y114.784 E26.46948
G0 F3600 X74.174 Y114.338
G1 F1800 X85.069 Y125.233 E26.75931
G0 F3600 X85.516 Y125.114
G1 F1800 X74.294 Y113.892 E27.05784
G0 F3600 X74.414 Y113.446
G1 F1800 X85.962 Y124.994 E27.36504
G0 F3600 X86.408 Y124.875
G1 F1800 X74.534 Y113 E27.68093
G0 F3600 X74.653 Y112.554
G1 F1800 X86.854 Y124.755 E28.0055
G0 F3600 X87.3 Y124.636
G1 F1800 X74.773 Y112.108 E28.33876
G0 F3600 X74.892 Y111.662
G1 F1800 X87.747 Y124.516 E28.68072
G0 F3600 X88.193 Y124.397
G1 F1800 X75.012 Y111.215 E29.03138
G0 F3600 X75.131 Y110.769
G1 F1800 X88.638 Y124.276 E29.39069
G0 F3600 X89.084 Y124.157
G1 F1800 X75.251 Y110.323 E29.75869
G0 F3600 X75.37 Y109.877
G1 F1800 X89.531 Y124.037 E30.13539
G0 F3600 X89.977 Y123.918
G1 F1800 X75.49 Y109.431 E30.52078
G0 F3600 X75.609 Y108.984
G1 F1800 X90.423 Y123.798 E30.91486
G0 F3600 X90.869 Y123.679
G1 F1800 X75.729 Y108.538 E31.31763
G0 F3600 X75.848 Y108.092
G1 F1800 X91.315 Y123.559 E31.72909
G0 F3600 X91.761 Y123.44
G1 F1800 X75.968 Y107.646 E32.14923
G0 F3600 X76.087 Y107.2
G1 F1800 X92.208 Y123.32 E32.57807
G0 F3600 X92.654 Y123.201
G1 F1800 X76.207 Y106.754 E33.01559
G0 F3600 X76.326 Y106.307
G1 F1800 X93.1 Y123.081 E33.46182
G0 F3600 X93.546 Y122.962
G1 F1800 X76.446 Y105.861 E33.91673
G0 F3600 X76.565 Y105.415
G1 F1800 X93.992 Y122.842 E34.38032
G0 F3600 X94.439 Y122.723
G1 F1800 X76.685 Y104.97 E34.8526
G0 F3600 X76.805 Y104.523
G1 F1800 X94.885 Y122.603 E35.33357
G0 F3600 X95.331 Y122.484
G1 F1800 X76.924 Y104.077 E35.82324
G0 F3600 X77.044 Y103.631
G1 F1800 X95.776 Y122.364 E36.32156
G0 F3600 X96.223 Y122.244
G1 F1800 X77.163 Y103.185 E36.82858
G0 F3600 X77.283 Y102.739
G1 F1800 X96.669 Y122.125 E37.34429
G0 F3600 X97.115 Y122.005
G1 F1800 X77.402 Y102.292 E37.8687
G0 F3600 X77.522 Y101.846
G1 F1800 X97.561 Y121.886 E38.40179
G0 F3600 X98.007 Y121.766
G1 F1800 X77.641 Y101.4 E38.94357
G0 F3600 X77.761 Y100.954
G1 F1800 X98.454 Y121.647 E39.49405
G0 F3600 X98.9 Y121.527
G1 F1800 X77.88 Y100.508 E40.05322
G0 F3600 X78 Y100.061
G1 F1800 X99.346 Y121.408 E40.62108
G0 F3600 X99.792 Y121.288
G1 F1800 X78.119 Y99.615 E41.19763
G0 F3600 X78.239 Y99.169
G1 F1800 X100.238 Y121.169 E41.78286
G0 F3600 X100.684 Y121.049
G1 F1800 X78.358 Y98.723 E42.37678
G0 F3600 X78.478 Y98.277
G1 F1800 X101.131 Y120.93 E42.9794
G0 F3600 X101.577 Y120.81
G1 F1800 X78.597 Y97.831 E43.5907
G0 F3600 X78.717 Y97.384
G1 F1800 X102.023 Y120.691 E44.21071
G0 F3600 X102.469 Y120.571
G1 F1800 X78.836 Y96.938 E44.83939
G0 F3600 X78.956 Y96.493
G1 F1800 X102.915 Y120.451 E45.47674
G0 F3600 X103.361 Y120.331
G1 F1800 X79.076 Y96.047 E46.12276
G0 F3600 X79.195 Y95.6
G1 F1800 X103.807 Y120.212 E46.77749
G0 F3600 X104.253 Y120.092
G1 F1800 X79.315 Y95.154 E47.4409
G0 F3600 X79.434 Y94.708
G1 F1800 X104.699 Y119.973 E48.113
G0 F3600 X105.146 Y119.853
G1 F1800 X79.554 Y94.262 E48.79379
G0 F3600 X79.673 Y93.816
G1 F1800 X105.592 Y119.734 E49.48328
G0 F3600 X106.038 Y119.614
G1 F1800 X79.793 Y93.369 E50.18145
G0 F3600 X79.912 Y92.923
G1 F1800 X106.484 Y119.495 E50.88832
G0 F3600 X106.93 Y119.375
G1 F1800 X80.032 Y92.477 E51.60387
G0 F3600 X80.151 Y92.031
G1 F1800 X107.376 Y119.256 E52.32811
G0 F3600 X107.823 Y119.136
G1 F1800 X80.271 Y91.585 E53.06104
G0 F3600 X80.39 Y91.138
G1 F1800 X108.269 Y119.017 E53.80268
G0 F3600 X108.715 Y118.897
G1 F1800 X80.51 Y90.692 E54.55299
G0 F3600 X80.629 Y90.246
G1 F1800 X109.161 Y118.778 E55.31201
G0 F3600 X109.607 Y118.658
G1 F1800 X80.749 Y89.8 E56.07969
G0 F3600 X80.868 Y89.354
G1 F1800 X110.053 Y118.538 E56.85606
G0 F3600 X110.499 Y118.419
G1 F1800 X80.988 Y88.908 E57.64112
G0 F3600 X81.108 Y88.462
G1 F1800 X110.945 Y118.299 E58.43485
G0 F3600 X111.391 Y118.18
G1 F1800 X81.228 Y88.016 E59.23726
G0 F3600 X81.347 Y87.57
G1 F1800 X111.838 Y118.06 E60.04837
G0 F3600 X112.284 Y117.941
G1 F1800 X81.467 Y87.124 E60.86817
G0 F3600 X81.586 Y86.677
G1 F1800 X112.73 Y117.821 E61.69667
G0 F3600 X113.176 Y117.702
G1 F1800 X81.706 Y86.231 E62.53385
G0 F3600 X81.825 Y85.785
G1 F1800 X113.622 Y117.582 E63.37972
G0 F3600 X114.069 Y117.463
G1 F1800 X81.945 Y85.339 E64.23429
G0 F3600 X82.064 Y84.893
G1 F1800 X114.515 Y117.343 E65.09754
G0 F3600 X114.961 Y117.224
G1 F1800 X82.184 Y84.446 E65.96949
G0 F3600 X82.303 Y84
G1 F1800 X83.659 Y85.356 E66.00556
G0 F3600 X83.78 Y84.911
G1 F1800 X82.423 Y83.554 E66.04166
G0 F3600 X82.542 Y83.108
G1 F1800 X83.9 Y84.466 E66.07779
G0 F3600 X84.087 Y84.087
G1 F1800 X82.662 Y82.662 E66.1157
G0 F3600 X82.781 Y82.216
G1 F1800 X84.533 Y83.967 E66.16229
G0 F3600 X84.978 Y83.847
G1 F1800 X82.901 Y81.769 E66.21756
G0 F3600 X83.02 Y81.323
G1 F1800 X85.424 Y83.727 E66.28151
G0 F3600 X85.871 Y83.608
G1 F1800 X83.14 Y80.877 E66.35416
G0 F3600 X83.259 Y80.431
G1 F1800 X86.317 Y83.488 E66.43549
G0 F3600 X86.763 Y83.369
G1 F1800 X83.379 Y79.985 E66.52552
G0 F3600 X83.499 Y79.539
G1 F1800 X87.209 Y83.249 E66.62421
G0 F3600 X87.655 Y83.13
G1 F1800 X83.618 Y79.093 E66.7316
G0 F3600 X83.738 Y78.647
G1 F1800 X88.101 Y83.01 E66.84767
G0 F3600 X88.548 Y82.891
G1 F1800 X83.857 Y78.201 E66.97244
G0 F3600 X83.977 Y77.754
G1 F1800 X88.994 Y82.771 E67.10591
G0 F3600 X89.44 Y82.652
G1 F1800 X84.096 Y77.308 E67.24807
G0 F3600 X84.216 Y76.862
G1 F1800 X89.886 Y82.532 E67.3989
G0 F3600 X90.332 Y82.413
G1 F1800 X84.335 Y76.416 E67.55844
G0 F3600 X84.455 Y75.97
G1 F1800 X90.779 Y82.293 E67.72666
G0 F3600 X91.225 Y82.174
G1 F1800 X84.574 Y75.523 E67.90359
G0 F3600 X84.694 Y75.077
G1 F1800 X91.67 Y82.054 E68.08918
G0 F3600 X92.116 Y81.934
G1 F1800 X84.813 Y74.631 E68.28345
G0 F3600 X84.933 Y74.185
G1 F1800 X92.563 Y81.815 E68.48643
G0 F3600 X93.009 Y81.695
G1 F1800 X85.052 Y73.739 E68.69809
G0 F3600 X85.172 Y73.293
G1 F1800 X93.455 Y81.576 E68.91843
G0 F3600 X93.901 Y81.456
G1 F1800 X85.291 Y72.846 E69.14748
G0 F3600 X85.411 Y72.4
G1 F1800 X94.347 Y81.337 E69.38521
G0 F3600 X94.794 Y81.217
G1 F1800 X85.53 Y71.954 E69.63163
G0 F3600 X85.651 Y71.509
G1 F1800 X95.24 Y81.098 E69.88672
G0 F3600 X95.686 Y80.978
G1 F1800 X85.77 Y71.062 E70.15051
G0 F3600 X85.89 Y70.616
G1 F1800 X96.132 Y80.859 E70.42298
G0 F3600 X96.578 Y80.739
G1 F1800 X86.009 Y70.17 E70.70414
G0 F3600 X86.129 Y69.724
G1 F1800 X97.024 Y80.62 E70.99398
G0 F3600 X97.471 Y80.5
G1 F1800 X86.248 Y69.278 E71.29253
G0 F3600 X86.368 Y68.831
G1 F1800 X97.917 Y80.381 E71.59977
G0 F3600 X98.363 Y80.261
G1 F1800 X86.487 Y68.385 E71.91569
G0 F3600 X86.607 Y67.939
G1 F1800 X98.809 Y80.142 E72.24031
G0 F3600 X99.255 Y80.022
G1 F1800 X86.726 Y67.493 E72.57361
G0 F3600 X86.846 Y67.047
G1 F1800 X99.702 Y79.903 E72.9156
G0 F3600 X100.148 Y79.783
G1 F1800 X86.965 Y66.6 E73.2663
G0 F3600 X87.085 Y66.154
G1 F1800 X100.594 Y79.664 E73.62568
G0 F3600 X101.04 Y79.544
G1 F1800 X87.204 Y65.708 E73.99375
G0 F3600 X87.324 Y65.262
G1 F1800 X101.486 Y79.425 E74.3705
G0 F3600 X101.932 Y79.305
G1 F1800 X87.443 Y64.816 E74.75594
G0 F3600 X87.563 Y64.37
G1 F1800 X102.379 Y79.186 E75.15008
G0 F3600 X102.824 Y79.065
G1 F1800 X87.682 Y63.923 E75.55289
G0 F3600 X87.802 Y63.477
G1 F1800 X103.27 Y78.946 E75.96438
G0 F3600 X103.717 Y78.826
G1 F1800 X87.922 Y63.032 E76.38455
G0 F3600 X88.041 Y62.586
G1 F1800 X104.163 Y78.707 E76.81342
G0 F3600 X104.609 Y78.587
G1 F1800 X88.161 Y62.139 E77.25097
G0 F3600 X88.28 Y61.693
G1 F1800 X105.055 Y78.468 E77.69722
G0 F3600 X105.501 Y78.348
G1 F1800 X88.4 Y61.247 E78.15214
G0 F3600 X88.519 Y60.801
G1 F1800 X105.947 Y78.229 E78.61576
G0 F3600 X106.394 Y78.109
G1 F1800 X88.639 Y60.355 E79.08807
G0 F3600 X88.758 Y59.908
G1 F1800 X106.84 Y77.99 E79.56909
G0 F3600 X107.286 Y77.87
G1 F1800 X88.878 Y59.462 E80.05878
G0 F3600 X88.997 Y59.016
G1 F1800 X107.732 Y77.751 E80.55718
G0 F3600 X108.178 Y77.631
G1 F1800 X89.117 Y58.57 E81.06424
G0 F3600 X89.236 Y58.124
G1 F1800 X108.625 Y77.512 E81.58001
G0 F3600 X109.071 Y77.392
G1 F1800 X89.356 Y57.677 E82.10448
G0 F3600 X89.475 Y57.231
G1 F1800 X109.517 Y77.273 E82.63764
G0 F3600 X109.963 Y77.153
G1 F1800 X89.595 Y56.785 E83.17947
G0 F3600 X89.714 Y56.339
G1 F1800 X110.409 Y77.034 E83.73
G0 F3600 X110.855 Y76.914
G1 F1800 X89.834 Y55.893 E84.2892
G0 F3600 X89.953 Y55.447
G1 F1800 X111.302 Y76.795 E84.85712
G0 F3600 X111.748 Y76.675
G1 F1800 X90.073 Y55 E85.43372
G0 F3600 X90.193 Y54.555
G1 F1800 X112.194 Y76.556 E86.01899
G0 F3600 X112.64 Y76.436
G1 F1800 X90.313 Y54.109 E86.61294
G0 F3600 X90.432 Y53.663
G1 F1800 X113.086 Y76.317 E87.21559
G0 F3600 X113.533 Y76.197
G1 F1800 X90.552 Y53.216 E87.82693
G0 F3600 X90.671 Y52.77
G1 F1800 X113.978 Y76.077 E88.44695
G0 F3600 X114.424 Y75.958
G1 F1800 X90.791 Y52.324 E89.07565
G0 F3600 X90.91 Y51.878
G1 F1800 X114.87 Y75.838 E89.71303
G0 F3600 X115.317 Y75.719
G1 F1800 X91.03 Y51.432 E90.35912
G0 F3600 X91.149 Y50.985
G1 F1800 X115.763 Y75.599 E91.01391
G0 F3600 X116.209 Y75.48
G1 F1800 X91.269 Y50.539 E91.67738
G0 F3600 X91.388 Y50.093
G1 F1800 X116.655 Y75.36 E92.34953
G0 F3600 X117.101 Y75.241
G1 F1800 X91.508 Y49.647 E93.03038
G0 F3600 X91.627 Y49.201
G1 F1800 X117.548 Y75.121 E93.71992
G0 F3600 X117.994 Y75.002
G1 F1800 X91.747 Y48.755 E94.41814
G0 F3600 X91.866 Y48.308
G1 F1800 X118.44 Y74.882 E95.12507
G0 F3600 X118.886 Y74.763
G1 F1800 X91.986 Y47.862 E95.84068
G0 F3600 X92.105 Y47.416
G1 F1800 X119.332 Y74.643 E96.56498
G0 F3600 X119.778 Y74.524
G1 F1800 X92.225 Y46.97 E97.29796
G0 F3600 X92.344 Y46.524
G1 F1800 X120.225 Y74.404 E98.03964
G0 F3600 X120.671 Y74.285
G1 F1800 X92.464 Y46.078 E98.79001
G0 F3600 X92.584 Y45.632
G1 F1800 X121.117 Y74.165 E99.54904
G1 X121.187 Y74.235
G0 F3600 X121.978 Y75.026
G1 F1800 X153.775 Y106.823 E100.39491
G0 F3600 X153.329 Y106.942
G1 F1800 X121.858 Y75.472 E101.2321
G0 F3600 X121.739 Y75.918
G1 F1800 X152.882 Y107.062 E102.06058
G0 F3600 X152.437 Y107.182
G1 F1800 X121.619 Y76.364 E102.8804
G0 F3600 X121.5 Y76.81
G1 F1800 X151.991 Y107.302 E103.69154
G0 F3600 X151.545 Y107.421
G1 F1800 X121.38 Y77.257 E104.49398
G0 F3600 X121.261 Y77.703
G1 F1800 X151.098 Y107.541 E105.28773
G0 F3600 X150.652 Y107.66
G1 F1800 X121.141 Y78.149 E106.07278
G0 F3600 X121.022 Y78.595
G1 F1800 X150.206 Y107.78 E106.84915
G0 F3600 X149.76 Y107.899
G1 F1800 X120.901 Y79.041 E107.61685
G0 F3600 X120.782 Y79.487
G1 F1800 X149.314 Y108.019 E108.37586
G0 F3600 X148.867 Y108.138
G1 F1800 X120.662 Y79.933 E109.12618
G0 F3600 X120.543 Y80.379
G1 F1800 X148.421 Y108.258 E109.8678
G0 F3600 X147.975 Y108.377
G1 F1800 X120.423 Y80.825 E110.60075
G0 F3600 X120.304 Y81.272
G1 F1800 X147.529 Y108.497 E111.32499
G0 F3600 X147.083 Y108.616
G1 F1800 X120.184 Y81.718 E112.04055
G0 F3600 X120.065 Y82.164
G1 F1800 X146.636 Y108.736 E112.74741
G0 F3600 X146.19 Y108.855
G1 F1800 X119.945 Y82.61 E113.44558
G0 F3600 X119.826 Y83.056
G1 F1800 X145.744 Y108.975 E114.13507
G0 F3600 X145.299 Y109.095
G1 F1800 X119.706 Y83.502 E114.8159
G0 F3600 X119.587 Y83.949
G1 F1800 X144.852 Y109.214 E115.488
G0 F3600 X144.406 Y109.334
G1 F1800 X119.467 Y84.395 E116.15143
G0 F3600 X119.348 Y84.841
G1 F1800 X143.96 Y109.453 E116.80616
G0 F3600 X143.514 Y109.573
G1 F1800 X119.228 Y85.286 E117.45223
G0 F3600 X119.108 Y85.733
G1 F1800 X143.068 Y109.692 E118.08961
G0 F3600 X142.622 Y109.812
G1 F1800 X118.989 Y86.179 E118.7183
G0 F3600 X118.869 Y86.625
G1 F1800 X142.175 Y109.931 E119.33829
G0 F3600 X141.729 Y110.051
G1 F1800 X118.75 Y87.071 E119.94959
G0 F3600 X118.63 Y87.517
G1 F1800 X141.283 Y110.17 E120.55221
G0 F3600 X140.837 Y110.29
G1 F1800 X118.511 Y87.964 E121.14613
G0 F3600 X118.391 Y88.41
G1 F1800 X140.391 Y110.409 E121.73136
G0 F3600 X139.944 Y110.529
G1 F1800 X118.272 Y88.856 E122.3079
G0 F3600 X118.152 Y89.302
G1 F1800 X139.498 Y110.648 E122.87575
G0 F3600 X139.052 Y110.768
G1 F1800 X118.033 Y89.748 E123.43491
G0 F3600 X117.913 Y90.195
G1 F1800 X138.606 Y110.887 E123.98538
G0 F3600 X138.16 Y111.007
G1 F1800 X117.794 Y90.641 E124.52715
G0 F3600 X117.673 Y91.086
G1 F1800 X137.714 Y111.127 E125.06029
G0 F3600 X137.268 Y111.246
G1 F1800 X117.554 Y91.532 E125.58472
G0 F3600 X117.434 Y91.979
G1 F1800 X136.822 Y111.366 E126.10047
